!!!!SEGMENT: pl-sa--22-a-i-22--005_haydn-joseph--requiem-benedictus.krn
!!!cenid: 18xx:355
!!!COM: Haydn, Joseph
!!!COM-rismid: pe55803
!!!CDT: 1732/03/31-1809/05/31
!!!CNT: Austrian
!!!OPR: Requiem
!!!OTL: Benedictus
!!!OMV: 005
!!!PDT: 1814
!!!AGN: Sacred; Requiem
!!!SMS-siglum: PL-SA
!!!SMS-shelfmark: 22/A I 22
!!!SMS-shelfwork: 001-005 M
!!!SMS-variant: Organo: PL-SA 22/A I 22:19
!!!SMS-altvar: Organo: PL-SA 22/A I 22:23
!!!NIFC-rismid: 1001036473
!!!URL-scan: http://bc.bdsandomierz.pl/dlibra/publication/1255/edition/1223/content
!!!ONB-nifc: UWAGA: części Requiem: Requiem, Dies irae, Offertorium, Sanctus, Benedictus, Agnus, Lux aeterna
**kern	**fba	**dynam	**kern	**dynam	**kern	**dynam	**kern	**text	**kern	**text	**kern	**text	**kern	**text
*part7	*	*part7	*part6	*part6	*part5	*part5	*part4	*part4	*part3	*part3	*part2	*part2	*part1	*part1
*	*	*	*group2	*	*group2	*	*group1	*	*group1	*	*group1	*	*group1	*
*staff7	*	*	*staff6	*	*staff5	*	*staff4	*staff4	*staff3	*staff3	*staff2	*staff2	*staff1	*staff1
*Iorgan	*	*	*Ivioln	*	*Ivioln	*	*Iempty	*	*Itenor	*	*Ialto	*	*Ivox	*
*I"Organo.	*	*	*I"Violino Secundo_	*	*I"Violino Primo	*	*I"Baſso.	*	*I"Tenore=	*	*I"Alto=	*	*I"Canto:	*
*I'org	*	*	*I'vl 2	*	*I'vl 1	*	*I'B	*	*I'T	*	*I'A	*	*I'C	*
*clefF4	*	*	*clefG2	*	*clefG2	*	*clefF4	*	*clefC4	*	*clefC3	*	*clefC1	*
*k[e-b-]	*	*	*k[b-e-]	*	*k[b-e-]	*	*k[e-b-]	*	*k[e-b-]	*	*k[e-b-]	*	*k[b-e-]	*
*B-:	*	*	*B-:	*	*B-:	*	*B-:	*	*B-:	*	*B-:	*	*B-:	*
*M2/4	*	*	*M2/4	*	*M2/4	*	*M2/4	*	*M2/4	*	*M2/4	*	*M2/4	*
!LO:TX:b:i:t=Benedictus	!	!	!LO:TX:b:i:t=Benedictus	!	!LO:TX:a:i:t=Moderato	!	!	!	!	!	!	!	!	!
!LO:TX:a:Bi:t=Tarde Solo.	!	!	!LO:TX:a:i:t=Moderato	!	!LO:TX:a:i:t=Benedictus	!	!LO:TX:a:Bi:t=Moderato	!	!LO:TX:a:t=Moderato	!	!LO:TX:a:t=Moderato	!	!LO:TX:a:t=Mode&colon;	!
8r	.	.	8r	.	16b-\LL	.	8r	.	8r	.	8r	.	8r	.
.	.	.	.	.	16dd\JJ	.	.	.	.	.	.	.	.	.
=1	=1	=1	=1	=1	=1	=1	=1	=1	=1	=1	=1	=1	=1	=1
*tremolo	*	*	*	*	*	*	*	*	*	*	*	*	*	*
!	!	!	!	!	!	!	!LO:TX:a:t=24.	!	!LO:TX:a:t=21.	!	!LO:TX:a:t=23.	!	!LO:TX:a:t=21.	!
!	!	!	!	!	!	!	!LO:N:vis=00	!	!LO:N:vis=00	!	!LO:N:vis=00	!	!LO:N:vis=00	!
8BB-/L	.	.	8d/L	.	8ff\L	.	0r	.	0r	.	0r	.	0r	.
8BB-/	.	.	8d/J	.	8.ff\J	.	.	.	.	.	.	.	.	.
8BB-/	.	.	8d/L	.	.	.	.	.	.	.	.	.	.	.
.	.	.	.	.	(16ff#X\LL	.	.	.	.	.	.	.	.	.
8BB-/J	.	.	16e-/L	.	16gg\	.	.	.	.	.	.	.	.	.
.	.	.	16c/JJ	.	[<16ee-\JJ)	.	.	.	.	.	.	.	.	.
=2	=2	=2	=2	=2	=2	=2	=2	=2	=2	=2	=2	=2	=2	=2
8BB-/L	.	.	(16g/LL	.	16ee-\LL]	.	.	.	.	.	.	.	.	.
.	.	.	16f/J)	.	16dd\J	.	.	.	.	.	.	.	.	.
8BB-/	.	.	8f/J|	.	8.dd\J	.	.	.	.	.	.	.	.	.
8BB-/	.	.	16f/LL	.	.	.	.	.	.	.	.	.	.	.
.	.	.	(16f#X/	.	(16dd\LL	.	.	.	.	.	.	.	.	.
8BB-/J	.	.	16g/	.	16ee-\	.	.	.	.	.	.	.	.	.
.	.	.	16e-/JJ)	.	16cc\JJ)	.	.	.	.	.	.	.	.	.
=3	=3	=3	=3	=3	=3	=3	=3	=3	=3	=3	=3	=3	=3	=3
4BB-/	.	.	8d/	.	(16b-\LL	.	.	.	.	.	.	.	.	.
.	.	.	.	.	16cc\)	.	.	.	.	.	.	.	.	.
.	.	.	8r	.	16dd\|	.	.	.	.	.	.	.	.	.
.	.	.	.	.	16ee-\JJ|	.	.	.	.	.	.	.	.	.
4r	.	.	16dd\LL	.	(16ff\LL	.	.	.	.	.	.	.	.	.
.	.	.	(16ee-\	.	16gg\)	.	.	.	.	.	.	.	.	.
.	.	.	16cc\	.	16aa\|	.	.	.	.	.	.	.	.	.
.	.	.	16dd\JJ)	.	16bb-\JJ|	.	.	.	.	.	.	.	.	.
=4	=4	=4	=4	=4	=4	=4	=4	=4	=4	=4	=4	=4	=4	=4
8F\L	.	.	8cc\L	.	8ee-\L|	.	.	.	.	.	.	.	.	.
8B-\J	.	.	8b-\J	.	8dd\J|	.	.	.	.	.	.	.	.	.
!	!	!	!	!	!	!LO:DY:b:t=p.	!	!	!	!	!	!	!	!
4r	.	.	8r	.	8r	p	.	.	.	.	.	.	.	.
!	!	!	!	!	!LO:TX:a:t=Clarinetti	!	!	!	!	!	!	!	!	!
.	.	.	8d/	.	(16B-/LL	.	.	.	.	.	.	.	.	.
.	.	.	.	.	16d/JJ)	.	.	.	.	.	.	.	.	.
=5	=5	=5	=5	=5	=5	=5	=5	=5	=5	=5	=5	=5	=5	=5
!	!	!	!	!	!	!	!LO:N:vis=00	!	!LO:N:vis=00	!	!LO:N:vis=00	!	!LO:N:vis=00	!
8BB-/L	.	.	8d/L	.	8f/L	.	0r	.	0r	.	0r	.	0r	.
8BB-/	.	.	8d/J	.	8.f/J	.	.	.	.	.	.	.	.	.
8BB-/	.	.	8d/L	.	.	.	.	.	.	.	.	.	.	.
.	.	.	.	.	(16f#X/LL	.	.	.	.	.	.	.	.	.
8BB-/J	.	.	(16e-/L	.	16g/	.	.	.	.	.	.	.	.	.
.	.	.	16c/JJ)	.	16e-/JJ)	.	.	.	.	.	.	.	.	.
=6	=6	=6	=6	=6	=6	=6	=6	=6	=6	=6	=6	=6	=6	=6
8BB-/L	.	.	(16g/LL	.	16e-/LL	.	.	.	.	.	.	.	.	.
.	.	.	16f/J)	.	16d/J	.	.	.	.	.	.	.	.	.
8BB-/	.	.	8f/J|	.	8.d/J	.	.	.	.	.	.	.	.	.
8BB-/	.	.	16f/LL	.	.	.	.	.	.	.	.	.	.	.
.	.	.	(16f#X/	.	(16d/LL	.	.	.	.	.	.	.	.	.
8BB-/J	.	.	16g/	.	16e-/	.	.	.	.	.	.	.	.	.
.	.	.	16e-/JJ)	.	16c/JJ)	.	.	.	.	.	.	.	.	.
=7	=7	=7	=7	=7	=7	=7	=7	=7	=7	=7	=7	=7	=7	=7
8BB-/	.	.	8d/	.	16B-/LL|	.	.	.	.	.	.	.	.	.
.	.	.	.	.	16c/|	.	.	.	.	.	.	.	.	.
8r	.	.	8r	.	16d/|	.	.	.	.	.	.	.	.	.
.	.	.	.	.	16e-/JJ|	.	.	.	.	.	.	.	.	.
4r	.	.	(16d/LL	.	16f/LL|	.	.	.	.	.	.	.	.	.
.	.	.	16e-/	.	16g/|	.	.	.	.	.	.	.	.	.
.	.	.	16c/)	.	16a/|	.	.	.	.	.	.	.	.	.
.	.	.	16e-/JJ	.	16b-/JJ|	.	.	.	.	.	.	.	.	.
=8	=8	=8	=8	=8	=8	=8	=8	=8	=8	=8	=8	=8	=8	=8
!LO:TX:a:t=P:problem:mixed beam	!	!	!	!	!	!	!	!	!	!	!	!	!	!
8F\L	.	.	8c/L	.	8e-/L	.	.	.	.	.	.	.	.	.
8BB-/J	.	.	8B-/J	.	8d/J	.	.	.	.	.	.	.	.	.
4r	.	.	8r	.	8r	.	.	.	.	.	.	.	.	.
.	.	.	8d/	.	8ff\	.	.	.	.	.	.	.	.	.
=9	=9	=9	=9	=9	=9	=9	=9	=9	=9	=9	=9	=9	=9	=9
!	!	!	!LO:TUP:b:problem:klamra łukowa:global	!	!LO:TUP:a:problem:klamra łukowa:global	!	!	!	!	!	!	!	!	!
!	!	!	!	!	!	!	!LO:N:vis=00	!	!LO:N:vis=00	!	!LO:N:vis=00	!	!LO:N:vis=00	!
8BB-/L	.	.	24e-/LL	.	24gg\LL	.	0r	.	0r	.	0r	.	0r	.
.	.	.	24f/	.	24aa\	.	.	.	.	.	.	.	.	.
.	.	.	24g/JJ	.	24bb-\JJ	.	.	.	.	.	.	.	.	.
8BB-/	.	.	4g/	.	4bb-\	.	.	.	.	.	.	.	.	.
8BB-/	.	.	.	.	.	.	.	.	.	.	.	.	.	.
8BB-/J	.	.	(16f/LL	.	(16aa\LL	.	.	.	.	.	.	.	.	.
.	.	.	16e-/JJ)	.	16gg\JJ)	.	.	.	.	.	.	.	.	.
!	!	!	!	!	!LO:LB:g=original	!	!	!	!	!	!	!	!	!
=10	=10	=10	=10	=10	=10	=10	=10	=10	=10	=10	=10	=10	=10	=10
8BB-/L	.	.	(16e-/LL	.	(16gg\LL	.	.	.	.	.	.	.	.	.
.	.	.	16d/J)	.	16ff\J)	.	.	.	.	.	.	.	.	.
8BB-/	.	.	8d'/J	.	8ff\J|	.	.	.	.	.	.	.	.	.
8BB-/	.	.	8r	.	8r	.	.	.	.	.	.	.	.	.
8BB-/J	.	.	8d/	.	8dd\	.	.	.	.	.	.	.	.	.
!	!	!	!LO:LB:g=original	!	!	!	!	!	!	!	!	!	!	!
=11	=11	=11	=11	=11	=11	=11	=11	=11	=11	=11	=11	=11	=11	=11
8BB-/L	.	.	24c/LL	.	24ee-\LL	.	.	.	.	.	.	.	.	.
.	.	.	24d/	.	24ff\	.	.	.	.	.	.	.	.	.
.	.	.	24e-/JJ	.	24gg\JJ	.	.	.	.	.	.	.	.	.
8BB-/	.	.	4e-/	.	4gg\	.	.	.	.	.	.	.	.	.
8BB-/	.	.	.	.	.	.	.	.	.	.	.	.	.	.
8BB-/J	.	.	(16d/LL	.	(16ff\LL	.	.	.	.	.	.	.	.	.
.	.	.	16c/JJ)	.	16ee-\JJ)	.	.	.	.	.	.	.	.	.
*Xtremolo	*	*	*	*	*	*	*	*	*	*	*	*	*	*
=12	=12	=12	=12	=12	=12	=12	=12	=12	=12	=12	=12	=12	=12	=12
8BB-/L	.	.	(16c/LL	.	(16ee-\LL	.	.	.	.	.	.	.	.	.
.	.	.	16B-/J)	.	16dd\J)	.	.	.	.	.	.	.	.	.
8BB-/	.	.	8B-'/J	.	8dd\J|	.	.	.	.	.	.	.	.	.
8BB-/J	.	.	8r	.	8r	.	.	.	.	.	.	.	.	.
8r	.	.	8f/	.	8cc\	.	.	.	.	.	.	.	.	.
=13	=13	=13	=13	=13	=13	=13	=13	=13	=13	=13	=13	=13	=13	=13
!LO:TX:a:t=P:problem:mixed beam	!	!	!	!	!	!	!	!	!	!	!	!	!	!
!	!	!	!	!	!	!	!LO:N:vis=00	!	!LO:N:vis=00	!	!LO:N:vis=00	!	!LO:N:vis=00	!
8BB-/L	.	.	(16d/LL	.	(16dd\LL	.	0r	.	0r	.	0r	.	0r	.
.	.	.	16f/)	.	16b-\)	.	.	.	.	.	.	.	.	.
8B-\	.	.	(16d/	.	16b-\|	.	.	.	.	.	.	.	.	.
.	.	.	16f/JJ)	.	16b-\JJ|	.	.	.	.	.	.	.	.	.
8A\	5 3	.	(16f/LL	.	8.ee-\L	.	.	.	.	.	.	.	.	.
.	.	.	16cc/	.	.	.	.	.	.	.	.	.	.	.
8F\J	.	.	16a/	.	.	.	.	.	.	.	.	.	.	.
.	.	.	16f/JJ)	.	16cc\Jk	.	.	.	.	.	.	.	.	.
=14	=14	=14	=14	=14	=14	=14	=14	=14	=14	=14	=14	=14	=14	=14
!LO:TX:a:t=P:problem:mixed beam	!	!	!	!	!	!	!	!	!	!	!	!	!	!
8BB-/L	.	.	(16d/LL	.	(16dd\LL	.	.	.	.	.	.	.	.	.
.	.	.	16f/)	.	16b-\)	.	.	.	.	.	.	.	.	.
8B-\	.	.	(16d/	.	16b-\|	.	.	.	.	.	.	.	.	.
.	.	.	16f/JJ)	.	16b-\JJ|	.	.	.	.	.	.	.	.	.
8A\	5 3	.	(16f/LL	.	8.ee-\L	.	.	.	.	.	.	.	.	.
.	.	.	16cc/	.	.	.	.	.	.	.	.	.	.	.
8F\J	.	.	16a/	.	.	.	.	.	.	.	.	.	.	.
.	.	.	16f/JJ)	.	16cc\Jk	.	.	.	.	.	.	.	.	.
=15	=15	=15	=15	=15	=15	=15	=15	=15	=15	=15	=15	=15	=15	=15
8B-\L	.	.	(16f/LL	.	(16dd\LL	.	.	.	.	.	.	.	.	.
.	.	.	16d/)	.	16b-\	.	.	.	.	.	.	.	.	.
8E-\J	.	.	(16g/	.	16ee-\	.	.	.	.	.	.	.	.	.
.	.	.	16e-/JJ)	.	16cc\JJ)	.	.	.	.	.	.	.	.	.
!LO:TX:a:t=P:problem:mixed beam	!	!	!	!	!	!	!	!	!	!	!	!	!	!
8F\L	.	.	8d/L	.	8b-\L|	.	.	.	.	.	.	.	.	.
8FF/J	.	.	8c/J	.	8a\J|	.	.	.	.	.	.	.	.	.
=16	=16	=16	=16	=16	=16	=16	=16	=16	=16	=16	=16	=16	=16	=16
4BB-/	.	.	8d/	.	8b-\	.	.	.	.	.	.	.	.	.
.	.	.	8r	.	8r	.	.	.	.	.	.	.	.	.
8r	.	.	8r	.	8r	.	.	.	.	.	.	.	.	.
8F\	7	.	8f/	.	8cc\	.	.	.	.	.	.	.	.	.
!LO:LB:g=original	!	!	!	!	!	!	!	!	!	!	!	!	!	!
=17	=17	=17	=17	=17	=17	=17	=17	=17	=17	=17	=17	=17	=17	=17
!LO:TX:a:t=P:problem:mixed beam	!	!	!LO:TX:b:t=P:problem:niejednoznaczny zapis łuków w t. 18	!	!	!	!	!	!	!	!	!	!	!
!	!	!	!	!	!	!	!LO:N:vis=00	!	!LO:N:vis=00	!	!LO:N:vis=00	!	!LO:N:vis=00	!
8BB-/L	.	.	16d/LL	.	(16dd\LL	.	0r	.	0r	.	0r	.	0r	.
.	.	.	16f/	.	16b-\)	.	.	.	.	.	.	.	.	.
8B-\J	.	.	(16d/	.	16b-\|	.	.	.	.	.	.	.	.	.
.	.	.	16f/JJ)	.	16b-\JJ|	.	.	.	.	.	.	.	.	.
8A\L	5 3	.	(16c/LL	.	8.ee-\L	.	.	.	.	.	.	.	.	.
.	.	.	16f/	.	.	.	.	.	.	.	.	.	.	.
8F\J	.	.	16c/	.	.	.	.	.	.	.	.	.	.	.
.	.	.	16f/JJ)	.	16cc\Jk	.	.	.	.	.	.	.	.	.
=18	=18	=18	=18	=18	=18	=18	=18	=18	=18	=18	=18	=18	=18	=18
!LO:TX:a:t=P:problem:mixed beam	!	!	!	!	!	!	!	!	!	!	!	!	!	!
8BB-/L	.	.	16d/LL	.	(16dd\LL	.	.	.	.	.	.	.	.	.
.	.	.	16f/	.	16b-\)	.	.	.	.	.	.	.	.	.
8B-\	.	.	(16d/	.	16b-\|	.	.	.	.	.	.	.	.	.
.	.	.	16f/JJ)	.	16b-\JJ|	.	.	.	.	.	.	.	.	.
8A\	5 3	.	(16c/LL	.	8.ee-\L	.	.	.	.	.	.	.	.	.
.	.	.	16f/)	.	.	.	.	.	.	.	.	.	.	.
8F\J	.	.	(16c/	.	.	.	.	.	.	.	.	.	.	.
.	.	.	16f/JJ)	.	16cc\Jk	.	.	.	.	.	.	.	.	.
=19	=19	=19	=19	=19	=19	=19	=19	=19	=19	=19	=19	=19	=19	=19
8B-\L	.	.	(16d/LL	.	(16dd\LL	.	.	.	.	.	.	.	.	.
.	.	.	16f/)	.	16b-\	.	.	.	.	.	.	.	.	.
8E-\J	.	.	(16g/	.	16g\	.	.	.	.	.	.	.	.	.
.	.	.	16e-/JJ)	.	16cc\JJ)	.	.	.	.	.	.	.	.	.
!LO:TX:a:t=P:problem:mixed beam	!	!	!	!	!	!	!	!	!	!	!	!	!	!
8F\L	4	.	8d/L	.	8b-\L	.	.	.	.	.	.	.	.	.
8FF/J	3	.	8c/J	.	8a\J	.	.	.	.	.	.	.	.	.
=20	=20	=20	=20	=20	=20	=20	=20	=20	=20	=20	=20	=20	=20	=20
8BB-/L	.	.	(16d/LL	.	(16dd\LL	.	.	.	.	.	.	.	.	.
.	.	.	16B-/)	.	16b-\	.	.	.	.	.	.	.	.	.
8E-/J	6	.	(16G/	.	16g\	.	.	.	.	.	.	.	.	.
.	.	.	16c/JJ)	.	16cc\JJ)	.	.	.	.	.	.	.	.	.
!LO:TX:a:t=P:problem:mixed beam	!	!	!	!	!	!	!	!	!	!	!	!	!	!
!LO:TX:a:t=P:problem:cyfrowanie pokreślone	!	!	!	!	!	!	!	!	!	!	!	!	!	!
8F\L	.	.	8d/L	.	8b-\L	.	.	.	.	.	.	.	.	.
8FF/J	.	.	8c/J	.	8a\J	.	.	.	.	.	.	.	.	.
!	!	!	!	!	!LO:LB:g=original	!	!	!	!	!	!	!	!	!
=21	=21	=21	=21	=21	=21	=21	=21	=21	=21	=21	=21	=21	=21	=21
!LO:TX:a:t=P:problem:cyfrowanie pokreślone	!	!	!	!	!	!	!LO:N:vis=00	!	!	!	!LO:N:vis=0	!	!	!
8BB-/L	.	.	(16f/LL	.	(16ff\LL	.	0r	.	2r	.	1r	.	2r	.
.	.	.	16d/)	.	16dd\	.	.	.	.	.	.	.	.	.
!LO:TX:a:t=P:problem:cyfrowanie pokreślone	!	!	!	!	!	!	!	!	!	!	!	!	!	!
8E-/J	6	.	(16g/	.	16gg\	.	.	.	.	.	.	.	.	.
.	.	.	16e-/JJ)	.	16ee-\JJ)	.	.	.	.	.	.	.	.	.
!LO:TX:a:t=P:problem:mixed beam	!	!	!	!	!	!	!	!	!	!	!	!	!	!
!LO:TX:a:t=P:problem:cyfrowanie pokreślone	!	!	!	!	!	!	!	!	!	!	!	!	!	!
8F\L	4	.	8d/L	.	8dd\L	.	.	.	.	.	.	.	.	.
!LO:TX:a:t=P:problem:cyfrowanie pokreślone	!	!	!	!	!	!	!	!	!	!	!	!	!	!
8FF/J	3	.	8e-/J	.	8cc\J	.	.	.	.	.	.	.	.	.
!	!	!	!LO:LB:g=original	!	!	!	!	!	!	!	!	!	!	!
=22	=22	=22	=22	=22	=22	=22	=22	=22	=22	=22	=22	=22	=22	=22
!LO:TX:a:t=P:problem:mixed beam	!LO:DY:t=for:problem:dopisane ołówkiem	!	!	!	!LO:TX:b:t=P:problem:niejednoznaczny zapis artykulacji w t. 23 [przyjęto staccato]	!	!	!	!	!	!	!	!	!
16BB-'/LL	.	f	8d/L	.	8b-'/L	.	.	.	4r	.	.	.	4r	.
16B-\|	.	.	.	.	.	.	.	.	.	.	.	.	.	.
16F\|	.	.	8d/	.	8f'/	.	.	.	.	.	.	.	.	.
16D\JJ|	.	.	.	.	.	.	.	.	.	.	.	.	.	.
8BB-/	.	.	8d/J	.	8B-'/J	.	.	.	8r	.	.	.	8r	.
!	!	!	!	!	!	!LO:DY:t=Piano	!	!	!	!	!	!	!LO:TX:a:t=Solo	!
8r	.	.	8r	.	(16b-\LL	p	.	.	16B-\	Be-	.	.	16b-\	Be-
.	.	.	.	.	16dd\JJ)	.	.	.	16B-\	-ne-	.	.	16dd\	-ne-
=23	=23	=23	=23	=23	=23	=23	=23	=23	=23	=23	=23	=23	=23	=23
!	!	!LO:DY:a	!	!LO:DY:a	!	!	!	!	!	!	!	!	!	!
8BB-/	.	p	8d/L	p	8ff\L	.	.	.	8d\	-di-	2r	.	4ff\	-di-
8r	.	.	8d/J	.	8.ff\J	.	.	.	4d\	-ctus	.	.	.	.
4r	.	.	8d/L	.	.	.	.	.	.	.	.	.	(16ff\LL	-ctus
.	.	.	.	.	(16ff#X\LL	.	.	.	.	.	.	.	16ff#X\JJ)	.
.	.	.	(16e-/L	.	16gg\	.	.	.	(16e-\LL	qui	.	.	(16gg\LL	qui
.	.	.	16c/JJ)	.	16ee-\JJ)	.	.	.	16c\JJ)	.	.	.	16ee-\JJ)	.
=24	=24	=24	=24	=24	=24	=24	=24	=24	=24	=24	=24	=24	=24	=24
*tremolo	*	*	*	*	*	*	*	*	*	*	*	*	*	*
8BB-/L	.	.	(16c/LL	.	(16ee-\LL	.	.	.	(16c\LL	ve-	4r	.	16ee-\LL	ve-
.	.	.	16B-/J)	.	16dd\J)	.	.	.	16B-\JJ)	.	.	.	16dd\JJ	.
8BB-/	.	.	8B-'/J	.	8.dd\J|	.	.	.	8B-\	-nit	.	.	4dd\	-nit
8BB-/	.	.	16f/LL	.	.	.	.	.	4r	.	(16f\LL	Be-	.	.
.	.	.	(16f#X/	.	(16dd\LL	.	.	.	.	.	16f#X\JJ)	.	.	.
8BB-/J	.	.	16g/	.	16ee-\	.	.	.	.	.	(16g\LL	-ne-	(16ee-\LL	qui
.	.	.	16e-/JJ)	.	16cc\JJ)	.	.	.	.	.	16e-\JJ)	.	16cc\JJ)	.
=25	=25	=25	=25	=25	=25	=25	=25	=25	=25	=25	=25	=25	=25	=25
!	!	!	!	!	!	!	!	!	!LO:TX:a:t=1	!	!	!	!	!
4BB-/	.	.	(16e-/LL	.	(16cc\LL	.	16BB-/LL	in	2r	.	8d\	-di-	8b-\	ve-
.	.	.	16d/J)	.	16b-\J)	.	16C/JJ	.	.	.	.	.	.	.
.	.	.	8d/J|	.	8b-\J|	.	16D/LL	No-	.	.	8d\	-ctus	8b-\	-nit
.	.	.	.	.	.	.	16E-/JJ	.	.	.	.	.	.	.
4r	.	.	4r	.	4r	.	16F\LL	-mi-	.	.	4r	.	4r	.
.	.	.	.	.	.	.	16G\JJ	.	.	.	.	.	.	.
.	.	.	.	.	.	.	16A\LL	-ne	.	.	.	.	.	.
.	.	.	.	.	.	.	16B-\JJ	.	.	.	.	.	.	.
=26	=26	=26	=26	=26	=26	=26	=26	=26	=26	=26	=26	=26	=26	=26
!LO:TX:a:t=P:problem:mixed beam	!	!	!	!	!	!	!	!	!	!	!	!	!	!
8F\L	.	.	8e-/L	.	16cc\LL	.	8.F\	Do-	16F/	Do-	16e-\	Do-	16cc\	Do-
.	.	.	.	.	16cc\J	.	.	.	16F/	-mi-	16e-\	-mi-	16cc\	-mi-
8FF/J	.	.	8d/	.	8b-\J	.	.	.	8F/	-ni	8d\	-ni	8b-\	-ni
.	.	.	.	.	.	.	16F\	-mi-	.	.	.	.	.	.
4r	.	.	8d/J	.	8r	.	8BB-/	-ni,	4r	.	8r	.	4r	.
.	.	.	8r	.	(16b-\LL	.	8r	.	.	.	16d\	Be-	.	.
.	.	.	.	.	16dd\JJ)	.	.	.	.	.	16d\	-ne-	.	.
!	!	!	!	!	!	!	!	!	!	!	!	!	!LO:LB:g=original	!
=27	=27	=27	=27	=27	=27	=27	=27	=27	=27	=27	=27	=27	=27	=27
!	!	!	!	!	!	!	!LO:TX:a:t=2	!	!LO:TX:a:t=1	!	!	!	!	!
!	!	!	!	!	!	!	!LO:N:vis=0	!	!	!	!	!	!	!
8BB-/L	.	.	8d/L	.	8ff\L	.	1r	.	2r	.	4f\	-di-	4r	.
8BB-/	.	.	8d/J	.	8.ff\J	.	.	.	.	.	.	.	.	.
8BB-/	.	.	8d/L	.	.	.	.	.	.	.	(16f\LL	-ctus	8r	.
.	.	.	.	.	(16ff#X\LL	.	.	.	.	.	16f#X\JJ)	.	.	.
8BB-/J	.	.	(16e-/L	.	16gg\	.	.	.	.	.	(16g\LL	qui	(16ee-\LL	qui
.	.	.	16c/JJ)	.	16ee-\JJ)	.	.	.	.	.	16e-\JJ)	.	16cc\JJ)	.
=28	=28	=28	=28	=28	=28	=28	=28	=28	=28	=28	=28	=28	=28	=28
8BB-/L	.	.	(16c/LL	.	(16ee-\LL	.	.	.	4r	.	(16e-\LL	ve-	(16cc\LL	ve-
.	.	.	16B-/J)	.	16dd\J)	.	.	.	.	.	16d\JJ)	.	16b-\JJ)	.
8BB-/	.	.	8B-/J	.	8dd\J|	.	.	.	.	.	4d\	-nit	4b-\	-nit
8BB-/	.	.	16f/LL	.	16dd\LL|	.	.	.	8r	.	.	.	.	.
.	.	.	(16f#X/	.	16dd\|	.	.	.	.	.	.	.	.	.
8BB-/J	.	.	16g/	.	(16ee-\	.	.	.	16G/LL	qui	(16e-\LL	qui	8r	.
.	.	.	16e-/JJ)	.	16cc\JJ)	.	.	.	16E-/JJ	.	16c\JJ)	.	.	.
=29	=29	=29	=29	=29	=29	=29	=29	=29	=29	=29	=29	=29	=29	=29
!	!	!	!	!	!	!	!	!	!	!	!	!	!LO:TX:a:t=3.	!
!	!	!	!	!	!	!	!	!	!	!	!	!	!LO:N:vis=0	!
4BB-/	.	.	(16e-/LL	.	(16cc\LL	.	16BB-/LL	in	8D/	ve-	8B-/	ve-	1r	.
.	.	.	16d/J)	.	16b-\J)	.	16C/JJ	.	.	.	.	.	.	.
.	.	.	8d/J|	.	8b-\J|	.	16D/LL	No-	8D/	-nit	8B-/	-nit	.	.
.	.	.	.	.	.	.	16E-/JJ	.	.	.	.	.	.	.
4r	.	.	4r	.	4r	.	16F\LL	-mi-	4r	.	4r	.	.	.
.	.	.	.	.	.	.	16G\JJ	.	.	.	.	.	.	.
.	.	.	.	.	.	.	16A\LL	-ne	.	.	.	.	.	.
.	.	.	.	.	.	.	16B-\JJ	.	.	.	.	.	.	.
!	!	!	!	!	!	!	!	!	!	!	!LO:LB:g=original	!	!	!
=30	=30	=30	=30	=30	=30	=30	=30	=30	=30	=30	=30	=30	=30	=30
!	!	!	!	!LO:DY:a	!	!LO:DY:a:t=for&colon;:problem:dopisane ołówkiem	!	!	!	!	!	!	!	!
8F\L	7	.	8cc\L	f	8ccL 8f/	f	16F\	Do-	16c\	Do-	16e-\	Do-	.	.
.	.	.	.	.	.	.	16F\	-mi-	16c\	-mi-	16e-\	-mi-	.	.
8B-\J	.	.	8b-\J	.	8ddJ 8f/	.	8BB-/	-ni	8B-\	-ni	8d\	-ni	.	.
!	!	!	!	!	!LO:TX:a:t=P:problem:mixed beam	!LO:DY:a:t=Piano:problem:dopisane ołówkiem	!	!	!	!	!	!	!	!
4r	.	.	8B-/L	.	8B-/L	p	4r	.	8r	.	8r	.	.	.
.	.	.	8d/J	.	8ff\J	.	.	.	8d\	qui	8f\	qui	.	.
!	!	!	!	!	!	!	!	!	!LO:LB:g=original	!	!	!	!	!
=31	=31	=31	=31	=31	=31	=31	=31	=31	=31	=31	=31	=31	=31	=31
!	!	!	!	!LO:DY:a	!LO:TUP:a:problem:brak łuku	!	!LO:TX:a:t=1	!	!LO:TUP:a:problem:klamra łukowa:global	!	!LO:TUP:a:problem:klamra łukowa:global	!	!	!
8BB-/L	5	.	24e-/LL	p	24gg\LL	.	2r	.	24e-\LL	ve-	24g\LL	ve-	2r	.
.	.	.	24f/	.	24aa\	.	.	.	24f\	.	24a\	.	.	.
.	.	.	24g/JJ	.	24bb-\JJ	.	.	.	24g\JJ	.	24b-\JJ	.	.	.
8BB-/	.	.	4g/	.	4bb-\	.	.	.	4g\	-nit	4b-\	-nit	.	.
8BB-/	.	.	.	.	.	.	.	.	.	.	.	.	.	.
8BB-/J	.	.	(16f/LL	.	(16aa\LL	.	.	.	(16f\LL	qui	(16a\LL	qui	.	.
.	.	.	16e-/JJ)	.	16gg\JJ)	.	.	.	16e-\JJ)	.	16g\JJ)	.	.	.
!	!	!	!	!	!LO:LB:g=original	!	!	!	!	!	!	!	!	!
=32	=32	=32	=32	=32	=32	=32	=32	=32	=32	=32	=32	=32	=32	=32
8BB-/L	.	.	(16e-/LL	.	(16gg\LL	.	8r	.	8e-\	ve-	8g\	ve-	4r	.
.	.	.	16d/J)	.	16ff\J)	.	.	.	.	.	.	.	.	.
8BB-/	.	.	8d'/J	.	8ff\J|	.	8B-\	in	8d\	-nit	8f\	-nit	.	.
8BB-/	.	.	8r	.	8r	.	16B-\	No-	4r	.	8r	.	8r	.
.	.	.	.	.	.	.	16BB-/	-mi-	.	.	.	.	.	.
8BB-/J	.	.	8d/	.	8ff\	.	8BB-/	-ne	.	.	8d\	qui	8ff\	qui
=33	=33	=33	=33	=33	=33	=33	=33	=33	=33	=33	=33	=33	=33	=33
!	!	!	!	!	!	!	!LO:TX:a:t=2	!	!LO:TX:a:t=2	!	!	!	!LO:TUP:a:problem:klamra łukowa:global	!
!	!	!	!	!	!	!	!LO:N:vis=0	!	!LO:N:vis=0	!	!	!	!	!
8AA/L	3 5	.	24c/LL	.	24ee-\LL	.	1r	.	1r	.	24c\LL	ve-	24ee-\LL	ve-
.	.	.	24d/	.	24ff\	.	.	.	.	.	24d\	.	24ff\	.
.	.	.	24e-/JJ	.	24gg\JJ	.	.	.	.	.	24e-\JJ	.	24gg\JJ	.
8AA/	.	.	4e-/	.	4gg\	.	.	.	.	.	4e-\	-nit	4gg\	-nit
8AA/	.	.	.	.	.	.	.	.	.	.	.	.	.	.
8AA/J	.	.	(16d/LL	.	(16ff\LL	.	.	.	.	.	(16d\LL	qui	16ff\LL	qui
.	.	.	16c/JJ)	.	16ee-\JJ)	.	.	.	.	.	16c\JJ)	.	16ee-\JJ	.
*Xtremolo	*	*	*	*	*	*	*	*	*	*	*	*	*	*
!LO:LB:g=original	!	!	!LO:LB:g=original	!	!	!	!	!	!	!	!	!	!	!
=34	=34	=34	=34	=34	=34	=34	=34	=34	=34	=34	=34	=34	=34	=34
4BB-/	5	.	(16c/LL	.	(16ee-\LL	.	.	.	.	.	8c/	ve-	8ee-\	ve-
.	.	.	16B-/J)	.	16dd\J)	.	.	.	.	.	.	.	.	.
.	.	.	8B-/J|	.	8dd\J|	.	.	.	.	.	8B-/	-nit	8dd\	-nit
8B-\L	.	.	4r	.	8r	.	.	.	.	.	4r	.	8r	.
8F\J	5	.	.	.	8cc\	.	.	.	.	.	.	.	8cc\	qui
!	!	!	!	!	!	!	!LO:LB:g=original	!	!	!	!	!	!	!
=35	=35	=35	=35	=35	=35	=35	=35	=35	=35	=35	=35	=35	=35	=35
!LO:TX:a:t=P:problem:mixed beam	!	!	!	!	!	!	!	!	!	!	!	!	!	!
8BB-/L	.	.	(16d/LL	.	(16dd\LL	.	8r	.	8r	.	8r	.	16dd\LL	ve-
.	.	.	16f/)	.	16b-\)	.	.	.	.	.	.	.	16b-\JJ	.
8B-\	.	.	(16d/	.	16b-\|	.	8B-\	qui	8B-\	qui	8f\	qui	16b-\	-nit
.	.	.	16f/JJ)	.	16b-\JJ|	.	.	.	.	.	.	.	16b-\	qui
8A\	5 3	.	(16c/LL	.	8.ee-\L	.	8A\	ve-	8c\	ve-	8f\	ve-	8.ee-\	ve-
.	.	.	16f/)	.	.	.	.	.	.	.	.	.	.	.
!LO:TX:a:t=P:problem:cyfrowanie pokreślone	!	!	!	!	!	!	!	!	!	!	!	!	!	!
8F\J	.	.	(16c/	.	.	.	8F\	-nit	16c\	-nit	8f\	-nit	.	.
.	.	.	16f/JJ)	.	16cc\Jk	.	.	.	16e-\	qui	.	.	16cc\	-nit
=36	=36	=36	=36	=36	=36	=36	=36	=36	=36	=36	=36	=36	=36	=36
!LO:TX:a:t=P:problem:mixed beam	!	!	!	!	!	!	!	!	!	!	!	!	!	!
8BB-/L	.	.	(16d/LL	.	(16dd\LL	.	8r	.	16d\LL	ve-	8r	.	8r	.
.	.	.	16f/)	.	16b-\)	.	.	.	16B-\JJ	.	.	.	.	.
8B-\	.	.	(16d/	.	16b-\|	.	8B-\	qui	16B-\	-nit	8f\	qui	8b-\	qui
.	.	.	16f/JJ)	.	16b-\JJ|	.	.	.	16B-\	qui	.	.	.	.
8A\	3 5	.	(16c/LL	.	8.ee-\L	.	8A\	ve-	8e-\	ve-	8f\	ve-	8cc\	ve-
.	.	.	16f/)	.	.	.	.	.	.	.	.	.	.	.
8F\J	.	.	(16c/	.	.	.	8F\	-nit	16c\	-nit	16f\	-nit	8b-\	-nit
.	.	.	16f/JJ)	.	16cc\Jk	.	.	.	16c\	in	16f\	in	.	.
!	!	!	!	!	!	!	!	!	!	!	!LO:LB:g=original	!	!	!
=37	=37	=37	=37	=37	=37	=37	=37	=37	=37	=37	=37	=37	=37	=37
!	!	!	!	!	!	!	!LO:TX:a:t=1	!	!	!	!	!	!LO:TX:a:t=2	!
!	!	!	!	!	!	!	!	!	!	!	!	!	!LO:N:vis=0	!
8BB-/L	.	.	8f/L|	.	8dd\L|	.	2r	.	8d\	No-	8f\	No-	1r	.
8BB-/	.	.	(16g/L	.	(16ee-\L	.	.	.	16e-\	-mi-	16g\	-mi-	.	.
.	.	.	16f/JJ)	.	16cc\JJ)	.	.	.	16d\	-ne	16f\	-ne	.	.
8E-/	5	.	(16f/LL	.	(16dd\LL	.	.	.	8.c\	Do-	8.e-\	Do-	.	.
.	.	.	16e-/	.	16cc\	.	.	.	.	.	.	.	.	.
8En/J	.	.	16e-/	.	16cc\	.	.	.	.	.	.	.	.	.
.	.	.	16d/JJ)	.	16b-\JJ)	.	.	.	16B-\	-mi-	16d\	-mi-	.	.
=38	=38	=38	=38	=38	=38	=38	=38	=38	=38	=38	=38	=38	=38	=38
.	.	.	.	.	16qqb-/	.	.	.	.	.	.	.	.	.
8F\	.	.	4c/	.	4a/	.	8r	.	8An\	-ni	4c\	-ni	.	.
8r	.	.	.	.	.	.	16F\	Be-	8r	.	.	.	.	.
.	.	.	.	.	.	.	16A\	-ne-	.	.	.	.	.	.
4r	.	.	4r	.	4r	.	16c\LL	-di-	8r	.	4r	.	.	.
.	.	.	.	.	.	.	16A\JJ	.	.	.	.	.	.	.
.	.	.	.	.	.	.	16F\	-ctus	16r	.	.	.	.	.
.	.	.	.	.	.	.	16e-\	qui	16c\	qui	.	.	.	.
!	!	!	!	!	!	!	!	!	!LO:LB:g=original	!	!	!	!	!
=39	=39	=39	=39	=39	=39	=39	=39	=39	=39	=39	=39	=39	=39	=39
8r	.	.	8r	.	8r	.	8d\	ve-	8B-\	ve-	8r	.	8r	.
!LO:TX:a:t=P:problem:mixed beam	!	!	!	!	!	!	!	!	!	!	!	!	!	!
8B-\L	.	.	8f/	.	8dd\	.	8BB-/	-nit	8F/	-nit	8f\	qui	8dd\	qui
8BB-/	.	.	(16f/LL	.	(16dd\LL	.	4r	.	4r	.	16f\LL	ve-	16dd\LL	ve-
.	.	.	16e-/)	.	16cc\	.	.	.	.	.	(16e-\	.	16cc\	.
8BB-/J	.	.	(16e-/	.	16cc\	.	.	.	.	.	16e-\	.	16cc\	.
!	!	!	!	!	!	!	!	!	!	!	!	!	!LO:TX:b:t=vertatur	!
.	.	.	16d/JJ)	.	16b-\JJ)	.	.	.	.	.	16d\JJ)	.	16b-\JJ	.
!	!	!	!	!	!	!	!	!	!	!	!	!	!LO:PB:g=original	!
=40	=40	=40	=40	=40	=40	=40	=40	=40	=40	=40	=40	=40	=40	=40
8BB-/	.	.	8d/	.	4b-\	.	8r	.	4r	.	4d\	-nit	4b-\	-nit
8r	.	.	8r	.	.	.	16G\	Be-	.	.	.	.	.	.
.	.	.	.	.	.	.	16Bn\	-ne-	.	.	.	.	.	.
4r	.	.	4r	.	4r	.	(16d\LL	-di-	8r	.	4r	.	4r	.
.	.	.	.	.	.	.	16Bn\JJ)	.	.	.	.	.	.	.
.	.	.	.	.	.	.	16G\	-ctus	16r	.	.	.	.	.
.	.	.	.	.	.	.	16f\	qui	16d\	qui	.	.	.	.
=41	=41	=41	=41	=41	=41	=41	=41	=41	=41	=41	=41	=41	=41	=41
8r	.	.	8r	.	8r	.	8en\	ve-	8c\	ve-	8r	.	8r	.
!LO:TX:a:t=P:problem:mixed beam	!	!	!	!	!	!	!	!	!	!	!	!	!	!
8c\L	.	.	8g/	.	8een\	.	8C/	-nit,	8G/	-nit	8g\	qui	8een\	in
8C/	.	.	(16g/LL	.	(16ee\LL	.	4r	.	4r	.	16g\LL	ve-	(16ee\LL	No-
.	.	.	16f/)	.	16dd\	.	.	.	.	.	(16f\	.	16dd\JJ)	.
8C/J	.	.	(16f/	.	16dd\	.	.	.	.	.	16f\	.	(16dd\LL	-mi-
.	.	.	16en/JJ)	.	16cc\JJ)	.	.	.	.	.	16en\JJ)	.	16cc\JJ)	.
=42	=42	=42	=42	=42	=42	=42	=42	=42	=42	=42	=42	=42	=42	=42
!	!	!	!LO:SIC:v:s=8en	!	!	!	!	!	!	!	!LO:SIC:v:s=4en	!	!	!
8C/	.	.	8e-/	.	4cc\	.	8r	.	8r	.	4e-\	-nit	4cc\	-ne
8r	.	.	8r	.	.	.	4c\	Be-	4c\	Be-	.	.	.	.
4r	.	.	4r	.	4r	.	.	.	.	.	4r	.	4r	.
.	.	.	.	.	.	.	8c\	-ne-	8c\	-ne-	.	.	.	.
!	!	!	!	!	!	!	!LO:LB:g=original	!	!	!	!	!	!	!
=43	=43	=43	=43	=43	=43	=43	=43	=43	=43	=43	=43	=43	=43	=43
8C/	.	.	8r	.	8r	.	4c\	-di-	4c\	-di-	8r	.	8r	.
8r	.	.	8g/L	.	8bb-\L|	.	.	.	.	.	8g\	qui	8b-\	qui
4r	.	.	8f/	.	(8aa\|	.	8c\	-ctus	8c\	-ctus	8f\	ve-	8a\	ve-
.	.	.	8en/J	.	8gg\J)|	.	8c\	qui	8c\	qui	8en\	-nit	8g\	-nit
!	!	!	!	!	!LO:LB:g=original	!	!	!	!	!	!	!	!	!
=44	=44	=44	=44	=44	=44	=44	=44	=44	=44	=44	=44	=44	=44	=44
*	*	*	*	*	*	*	*2\right	*	*	*	*	*	*	*
8C/	.	.	8r	.	8r	.	2c\	ve-	4c\	ve-	8r	.	8r	.
8r	.	.	8a/L	.	8ccc\L|	.	.	.	.	.	8a\	qui	8cc\	qui
4r	.	.	8g/	.	(8bb-\	.	.	.	4c\	-nit	8g\	ve-	8b-\	ve-
.	.	.	8f/J	.	8aa\J)	.	.	.	.	.	8f\	-nit	8a\	-nit
!	!	!	!	!	!	!	!	!	!	!	!LO:LB:g=original	!	!	!
=45	=45	=45	=45	=45	=45	=45	=45	=45	=45	=45	=45	=45	=45	=45
!LO:TX:a:t=P:problem:mixed beam	!	!	!	!	!	!	!	!	!	!	!	!	!	!
8c\L	.	.	(16g/LL	.	16cc\LL	.	4c\	-nit	4r	.	8r	.	8r	.
.	.	.	16b-/	.	16bb-\	.	.	.	.	.	.	.	.	.
8C/J	.	.	16g/	.	(16gg\	.	.	.	.	.	16g\	Be-	16een\	Be-
.	.	.	16b-/JJ)	.	16een\JJ)	.	.	.	.	.	16g\	-ne-	16ee\	-ne-
8F\L	5	.	(16a\LL	.	8ff\L	.	8r	.	8r	.	8a\	-di-	8ff\	-di-
.	.	.	16cc\	.	.	.	.	.	.	.	.	.	.	.
8A\J	6	.	16a\	.	8cc\J	.	8A\	qui	8c\	qui	8a\	-ctus	8cc\	-ctus
.	.	.	16cc\JJ)	.	.	.	.	.	.	.	.	.	.	.
!	!	!	!LO:LB:g=original	!	!	!	!	!	!	!	!	!	!	!
=46	=46	=46	=46	=46	=46	=46	=46	=46	=46	=46	=46	=46	=46	=46
!LO:TX:a:t=P:problem:takt zapisany repetycją	!	!	!	!	!	!	!	!	!	!	!	!	!	!
!LO:TX:a:t=P:problem:mixed beam	!	!	!	!	!LO:TX:a:t=P:problem:mixed beam	!	!	!	!	!	!	!	!	!
8c\Lyy	.	.	16g/LL	.	16c/LL	.	8G\	ve-	8B-\	ve-	8r	.	8r	.
.	.	.	(16b-/	.	16bb-\	.	.	.	.	.	.	.	.	.
8C/Jyy	.	.	16g/	.	(16gg\	.	8En\	-nit	8G/	-nit	16g\	Be-	16een\	Be-
.	.	.	16b-/JJ)	.	16een\JJ)	.	.	.	.	.	16g\	-ne-	16ee\	-ne-
8F\Lyy	5	.	16a\LL	.	8ff\L	.	8r	.	8r	.	8a\	-di-	8ff\	-di-
.	.	.	(16cc\	.	.	.	.	.	.	.	.	.	.	.
8A\Jyy	6	.	16a\	.	8cc\J	.	8A\	qui	8c\	qui	8a\	-ctus	8cc\	-ctus
.	.	.	16cc\JJ)	.	.	.	.	.	.	.	.	.	.	.
!	!	!	!	!	!	!	!	!	!	!	!	!	!LO:LB:g=original	!
=47	=47	=47	=47	=47	=47	=47	=47	=47	=47	=47	=47	=47	=47	=47
!LO:TX:a:t=P:problem:mixed beam	!	!	!	!	!LO:TX:a:t=P:problem:mixed beam	!	!	!	!	!	!	!	!	!
8c\L	.	.	(16g/LL	.	16c/LL	.	8G\	ve-	8B-\	ve-	8r	.	8r	.
.	.	.	16b-/)	.	16bb-\	.	.	.	.	.	.	.	.	.
8C/J	.	.	(16g/	.	16gg\	.	8En\	-nit	8G/	-nit	8g\	qui	8een\	qui
.	.	.	16b-/JJ)	.	16een\JJ	.	.	.	.	.	.	.	.	.
4r	.	.	(16a\LL	.	16ff\LL	.	4r	.	4r	.	8a\	ve-	8ff\	ve-
.	.	.	16cc\	.	16ff\	.	.	.	.	.	.	.	.	.
.	.	.	16a\	.	16ff\	.	.	.	.	.	16a\	-nit	16ff\	-nit
.	.	.	16cc\JJ)	.	16ff\JJ	.	.	.	.	.	16a\	in	16ff\	in
!	!	!	!	!	!	!	!	!	!LO:LB:g=original	!	!	!	!	!
=48	=48	=48	=48	=48	=48	=48	=48	=48	=48	=48	=48	=48	=48	=48
*	*	*	*	*	*2\right	*	*	*	*	*	*	*	*	*
*	*	*	*tremolo	*	*tremolo	*	*	*	*	*	*	*	*	*
!LO:TX:a:t=1	!	!	!	!	!	!	!LO:TX:a:t=1	!	!	!	!	!	!	!
2r	.	.	16d/LL	.	16ff\LL	.	2r	.	8r	.	4a\	No-	4ff\	No-
.	.	.	16d/	.	16ff\	.	.	.	.	.	.	.	.	.
.	.	.	16d/	.	16ff\	.	.	.	8d\	in	.	.	.	.
.	.	.	16d/	.	16ff\	.	.	.	.	.	.	.	.	.
.	.	.	16d/	.	16ff\	.	.	.	8d\	No-	8a\	-mi-	8ff\	-mi-
.	.	.	16d/	.	16ff\	.	.	.	.	.	.	.	.	.
.	.	.	16d/	.	16ff\	.	.	.	16d\	-mi-	8a\	-ne	8ff\	-ne
.	.	.	16d/JJ	.	16ff\JJ	.	.	.	16d\	-ne	.	.	.	.
=49	=49	=49	=49	=49	=49	=49	=49	=49	=49	=49	=49	=49	=49	=49
*	*	*	*2\right	*	*	*	*	*	*	*	*	*	*	*
16B-\LL	.	.	16dd\LL	.	16ff\LL	.	8r	.	4d\	No-	4g\	No-	4ff\	No-
16B-\	3_ 5_	.	16dd\	.	16ff\	.	.	.	.	.	.	.	.	.
16B-\	.	.	16dd\	.	16ff\	.	8B-\	in	.	.	.	.	.	.
16B-\JJ	.	.	16dd\	.	16ff\	.	.	.	.	.	.	.	.	.
*tremolo	*	*	*	*	*	*	*	*	*	*	*	*	*	*
16B-\LL	.	.	16dd\	.	16ff\	.	8B-\	No-	8d\	-mi-	8g\	-mi-	8ff\	-mi-
16B-\	.	.	16dd\	.	16ff\	.	.	.	.	.	.	.	.	.
16B-\	.	.	16dd\	.	16ff\	.	16B-\	-mi-	8d\	-ne	8g\	-ne	8ff\	-ne
16B-\JJ	X X	.	16dd\JJ	.	16ff\JJ	.	16B-\	-ne	.	.	.	.	.	.
!LO:LB:g=original	!	!	!	!	!	!	!	!	!	!	!	!	!	!
=50	=50	=50	=50	=50	=50	=50	=50	=50	=50	=50	=50	=50	=50	=50
16c\LL	6 4	.	16a/LL	.	16ff\LL	.	4.c\	Do-	4c\	Do-	4.a\	Do-	4.ff\	Do-
16c\	.	.	16a/	.	16ff\	.	.	.	.	.	.	.	.	.
16c\	.	.	16a/	.	16ff\	.	.	.	.	.	.	.	.	.
16c\JJ	.	.	16a/JJ	.	16ff\JJ	.	.	.	.	.	.	.	.	.
16C/LL	5 3	.	16b-/LL	.	16een\LL	.	.	.	4B-X\	-mi-	.	.	.	.
16C/	.	.	16b-/	.	16een\	.	.	.	.	.	.	.	.	.
16C/	.	.	16b-/	.	16een\	.	8C/	-mi-	.	.	8g\	-mi-	8een\	-mi-
16C/JJ	.	.	16b-/JJ	.	16een\JJ	.	.	.	.	.	.	.	.	.
*Xtremolo	*	*	*Xtremolo	*	*Xtremolo	*	*	*	*	*	*	*	*	*
=51	=51	=51	=51	=51	=51	=51	=51	=51	=51	=51	=51	=51	=51	=51
!	!	!LO:DY:a	!	!	!	!	!	!	!	!	!	!	!	!
8F\	.	f	(16A/LL	.	16r	.	4F\	-ni	8A\	-ni	4f\	-ni	4ff\	-ni
.	.	.	16c/	.	(16ccc\LL	.	.	.	.	.	.	.	.	.
8r	.	.	16A/)	.	16aa\	.	.	.	8r	.	.	.	.	.
.	.	.	16c/JJ	.	16ff\JJ)	.	.	.	.	.	.	.	.	.
8C/	.	.	16B-/LL	.	16r	.	4r	.	4r	.	4r	.	4r	.
.	.	.	(16c/	.	(16bb-\LL	.	.	.	.	.	.	.	.	.
8r	.	.	16B-/	.	16gg\	.	.	.	.	.	.	.	.	.
.	.	.	16c/JJ)	.	16een\JJ)	.	.	.	.	.	.	.	.	.
=52	=52	=52	=52	=52	=52	=52	=52	=52	=52	=52	=52	=52	=52	=52
!	!	!	!	!	!	!	!LO:TX:a:t=7.	!	!LO:TX:a:t=1	!	!LO:TX:a:t=2	!	!LO:TX:a:t=3.	!
!	!	!	!	!	!	!	!LO:N:vis=00	!	!	!	!LO:N:vis=0	!	!LO:N:vis=0	!
8F\	.	.	(16A/LL	.	16r	.	0r	.	2r	.	1r	.	1r	.
.	.	.	16c/)	.	(16cc/LL	.	.	.	.	.	.	.	.	.
8r	.	.	(16A/	.	16a/	.	.	.	.	.	.	.	.	.
.	.	.	16c/JJ)	.	16f/JJ)	.	.	.	.	.	.	.	.	.
8C/	.	.	(16B-/LL	.	16r	.	.	.	.	.	.	.	.	.
.	.	.	16c/)	.	(16b-/LL	.	.	.	.	.	.	.	.	.
8r	.	.	(16B-/	.	16g/	.	.	.	.	.	.	.	.	.
!	!	!	!	!	!LO:SIC:v:s=16en:t=kasownik dopisany	!	!	!	!	!	!	!	!	!
.	.	.	16c/JJ)	.	16e-/JJ)	.	.	.	.	.	.	.	.	.
=53	=53	=53	=53	=53	=53	=53	=53	=53	=53	=53	=53	=53	=53	=53
8F\L	.	.	8A/L	.	8f'/L	.	.	.	4r	.	.	.	.	.
8C\J	.	.	8c/	.	8c'/	.	.	.	.	.	.	.	.	.
8FF/	.	.	8A/J	.	8A'/J	.	.	.	8r	.	.	.	.	.
!	!	!	!	!	!	!LO:DY:a	!	!	!	!	!	!	!	!
8r	.	.	8r	.	16ff\LL	p	.	.	16F/	Be-	.	.	.	.
.	.	.	.	.	16aa\JJ	.	.	.	16A/	-ne-	.	.	.	.
=54	=54	=54	=54	=54	=54	=54	=54	=54	=54	=54	=54	=54	=54	=54
!	!	!LO:DY:a:t=Piano	!	!LO:DY:a:t=p.	!	!	!	!	!	!	!	!	!	!
8F\L	5 3	p	8a/L	p	8ccc\L	.	.	.	4c\	-di-	4r	.	2r	.
8F\	5_ 3_	.	8a/J	.	8.ccc\J	.	.	.	.	.	.	.	.	.
8F\	.	.	8a'/L	.	.	.	.	.	(16c\LL	-ctus	8r	.	.	.
.	.	.	.	.	(16ccc#X\LL	.	.	.	16c#X\JJ)	.	.	.	.	.
8F\J	.	.	(16b-/L	.	16ddd\	.	.	.	(16d\LL	qui	16b-\LL	qui	.	.
.	6 4	.	16g/JJ)	.	16bb-\JJ)	.	.	.	16B-\JJ)	.	16g\JJ	.	.	.
!	!	!	!	!	!LO:LB:g=original	!	!	!	!	!	!LO:LB:g=original	!	!	!
=55	=55	=55	=55	=55	=55	=55	=55	=55	=55	=55	=55	=55	=55	=55
*2\right	*	*	*	*	*	*	*	*	*	*	*	*	*	*
*tremolo	*	*	*	*	*	*	*	*	*	*	*	*	*	*
8F\L	.	.	(16g/LL	.	16bb-\LL	.	.	.	8B-\	ve-	8g\	ve-	4r	.
.	.	.	16f/J)	.	16aa\J	.	.	.	.	.	.	.	.	.
8F\	.	.	8cc/J|	.	8.aa\J|	.	.	.	4A\	-nit	8f\	-nit	.	.
8F\	.	.	16cc\LL	.	.	.	.	.	.	.	4r	.	8r	.
.	.	.	(16cc#X\	.	(16aa\LL	.	.	.	.	.	.	.	.	.
8F\J	.	.	16dd\	.	16bb-\	.	.	.	(16B-/LL	qui	.	.	(16dd\LL	qui
.	.	.	16b-\JJ)	.	16gg\JJ)	.	.	.	16G/JJ)	.	.	.	16b-\JJ)	.
*Xtremolo	*	*	*	*	*	*	*	*	*	*	*	*	*	*
=56	=56	=56	=56	=56	=56	=56	=56	=56	=56	=56	=56	=56	=56	=56
!LO:TX:a:t=P:problem:mixed beam	!	!	!	!	!	!	!	!	!	!	!LO:TX:a:t=2	!	!	!
!	!	!	!	!	!	!	!LO:N:vis=0	!	!	!	!LO:N:vis=0	!	!	!
8F\L	.	.	(16b-\LL	.	(16gg\LL	.	1r	.	8G/	ve-	1r	.	8b-\	ve-
.	.	.	16a\J	.	16ff\J)	.	.	.	.	.	.	.	.	.
8FF/	.	.	8a\J)	.	8ff\J|	.	.	.	8F/	-nit	.	.	8a\	-nit
8FF/J	.	.	4r	.	8r	.	.	.	4r	.	.	.	8r	.
8r	.	.	.	.	(16b-\LL	.	.	.	.	.	.	.	16b-\	Be-
.	.	.	.	.	16dd\JJ)	.	.	.	.	.	.	.	16dd\	-ne-
!	!	!	!	!	!	!	!	!	!LO:LB:g=original	!	!	!	!	!
=57	=57	=57	=57	=57	=57	=57	=57	=57	=57	=57	=57	=57	=57	=57
*tremolo	*	*	*	*	*	*	*	*	*	*	*	*	*	*
8BB-/L	.	.	8d/L	.	8ff\L	.	.	.	4r	.	.	.	4ff\	-di-
8BB-/	.	.	8d/J	.	8.ff\J	.	.	.	.	.	.	.	.	.
8BB-/	.	.	8d/L	.	.	.	.	.	8r	.	.	.	16ff\LL	-ctus
.	.	.	.	.	(16ff#X\LL	.	.	.	.	.	.	.	16ff#X\JJ	.
8BB-/J	.	.	(16e-/L	.	16gg\	.	.	.	(16e-\LL	qui	.	.	(16gg\LL	qui
.	.	.	16c/JJ)	.	16ee-\JJ)	.	.	.	16c\JJ)	.	.	.	16ee-\JJ)	.
!	!	!	!LO:LB:g=original	!	!	!	!	!	!	!	!	!	!LO:LB:g=original	!
=58	=58	=58	=58	=58	=58	=58	=58	=58	=58	=58	=58	=58	=58	=58
8BB-/L	.	.	(16c/LL	.	(16ee-\LL	.	2r	.	(16c\LL	ve-	4r	.	16ee-\LL	ve-
.	.	.	16B-/J)	.	16dd\J)	.	.	.	16B-\JJ)	.	.	.	16dd\JJ	.
8BB-/	.	.	8B-'/J	.	8.dd\J|	.	.	.	4B-\	-nit	.	.	4dd\	-nit
8BB-/	.	.	(16f/LL	.	.	.	.	.	.	.	(16f\LL	Be-	.	.
.	.	.	16f#X/	.	(16dd\LL	.	.	.	.	.	16f#X\JJ)	.	.	.
8BB-/J	.	.	16g/	.	16ee-\	.	.	.	8r	.	(16g\LL	-ne-	16ee-\LL	qui
.	.	.	16e-/JJ)	.	16cc\JJ)	.	.	.	.	.	16e-\JJ)	.	16cc\JJ	.
*Xtremolo	*	*	*	*	*	*	*	*	*	*	*	*	*	*
=59	=59	=59	=59	=59	=59	=59	=59	=59	=59	=59	=59	=59	=59	=59
!LO:TX:a:t=P:problem:mixed beam	!	!	!	!	!	!	!	!	!LO:TX:a:t=1	!	!	!	!	!
8BB-/L	.	.	(16e-/LL	.	(16cc\LL	.	4r	.	2r	.	(16e-\LL	-di-	(16cc\LL	ve-
.	.	.	16d/J)	.	16b-\J)	.	.	.	.	.	16d\JJ)	.	16b-\JJ)	.
8B-\	.	.	8d/J	.	8b-\J|	.	.	.	.	.	8d\	-ctus	8b-\	-nit
8BB-/J	.	.	4r	.	4r	.	8r	.	.	.	4r	.	4r	.
8r	.	.	.	.	.	.	16B-\	Be-	.	.	.	.	.	.
.	.	.	.	.	.	.	16B-\	-ne-	.	.	.	.	.	.
=60	=60	=60	=60	=60	=60	=60	=60	=60	=60	=60	=60	=60	=60	=60
!	!	!	!	!	!	!	!	!	!	!	!	!	!LO:TX:a:t=2	!
!	!	!	!	!	!	!	!	!	!	!	!	!	!LO:N:vis=0	!
8BB-/L	.	.	8B-/L	.	8B-/L|	.	16B-\LL	-di-	4r	.	4r	.	1r	.
.	.	.	.	.	.	.	(16A-X\	.	.	.	.	.	.	.
8D/	5 3	.	8d/	.	8d/J|	.	16G\	.	.	.	.	.	.	.
.	.	.	.	.	.	.	16F\JJ	.	.	.	.	.	.	.
!	!	!	!	!	!LO:TX:a:t=P:problem:mixed beam	!	!	!	!	!	!	!	!	!
8E-X/	3	.	8e-/	.	8e-X/L|	.	8E-\)	-ctus	8r	.	8r	.	.	.
8E-/J	.	.	8g/J	.	8ee-\J|	.	8r	.	8e-X\	qui	8g\	qui	.	.
!	!	!	!	!	!	!	!LO:LB:g=original	!	!	!	!	!	!	!
=61	=61	=61	=61	=61	=61	=61	=61	=61	=61	=61	=61	=61	=61	=61
8A-X\L	6	.	16a-X/LL	.	16ff\LL|	.	4r	.	(8f\L	ve-	8a-X\L	ve-	.	.
.	.	.	16a-/	.	16ff\|	.	.	.	.	.	.	.	.	.
8B-\	7	.	16f/	.	16dd\|	.	.	.	8d\J)	.	8f\J	.	.	.
.	.	.	16f/JJ	.	16dd\JJ|	.	.	.	.	.	.	.	.	.
8E-\J	.	.	8g/	.	8ee-\	.	8r	.	8e-\	-nit	8g\	-nit	.	.
8r	.	.	8r	.	8r	.	16c\	Be-	8r	.	8r	.	.	.
.	.	.	.	.	.	.	16c\	-ne-	.	.	.	.	.	.
=62	=62	=62	=62	=62	=62	=62	=62	=62	=62	=62	=62	=62	=62	=62
!	!	!	!	!	!LO:TX:a:t=P:problem:mixed beam	!	!	!	!LO:TX:a:t=1	!	!	!	!	!
8C\L	5 3	.	8c/L	.	8c/L|	.	16c\LL	-di-	2r	.	4r	.	4r	.
.	.	.	.	.	.	.	16B-\	.	.	.	.	.	.	.
8En\	5 3	.	8en/	.	8en/|	.	(16G\	.	.	.	.	.	.	.
.	.	.	.	.	.	.	16En\JJ	.	.	.	.	.	.	.
8F\	.	.	8f/	.	8f/|	.	8F\)	-ctus	.	.	8r	.	8r	.
8F\J	.	.	8an/J	.	8ff\J|	.	8r	.	.	.	8an\	qui	8ff\	qui
=63	=63	=63	=63	=63	=63	=63	=63	=63	=63	=63	=63	=63	=63	=63
!	!	!	!	!	!	!	!LO:TX:a:t=1	!	!	!	!	!	!	!
8B-\L	6	.	16b-/LL	.	16gg\LL|	.	2r	.	8r	.	8b-\L	ve-	8gg\L	ve-
.	.	.	16b-/	.	16gg\|	.	.	.	.	.	.	.	.	.
8c\	7_	.	16g/	.	16een\|	.	.	.	4r	.	8g\J	.	8een\J	.
.	.	.	16g/JJ	.	16ee\JJ|	.	.	.	.	.	.	.	.	.
8F\J	.	.	8a/	.	8ff\	.	.	.	.	.	8a\	-nit	8ff\	-nit
8r	.	.	8r	.	8r	.	.	.	16f\	Be-	8r	.	8r	.
.	X	.	.	.	.	.	.	.	16f\	-ne-	.	.	.	.
!LO:LB:g=original	!	!	!	!	!	!	!	!	!	!	!	!	!	!
=64	=64	=64	=64	=64	=64	=64	=64	=64	=64	=64	=64	=64	=64	=64
!LO:TX:a:t=P:problem:mixed beam	!	!	!	!	!LO:TX:a:t=P:problem:mixed beam	!	!	!	!	!	!	!	!	!
8FF/L	.	.	8f/L	.	8f/L|	.	8r	.	16f\LL	-di-	4r	.	4r	.
.	.	.	.	.	.	.	.	.	(16e-\	.	.	.	.	.
8AA/	.	.	8a/J	.	8a/|	.	16An\	Be-	16d\	.	.	.	.	.
.	.	.	.	.	.	.	16A\	-ne-	16c\JJ)	.	.	.	.	.
8BB-/	.	.	8b-\L	.	8b-/|	.	8B-\	-di-	8B-\	-ctus	8r	.	8r	.
8B-\J	.	.	8dd\J	.	8bb-\J|	.	8BB-/	-ctus	8r	.	8d\	qui	8b-\	qui
=65	=65	=65	=65	=65	=65	=65	=65	=65	=65	=65	=65	=65	=65	=65
!LO:TX:a:t=P:problem:mixed beam	!	!	!	!	!	!	!LO:TX:a:t=1	!	!LO:TX:a:t=1	!	!	!	!	!
8F\L	4	.	16ff\LL	.	16ddd\LL	.	2r	.	2r	.	16f\LL	ve-	16dd\LL	ve-
.	.	.	(16ee-\	.	(16bb-\	.	.	.	.	.	(16e-\	.	(16cc\	.
8FF/	3	.	16dd\	.	16bb-\	.	.	.	.	.	16d\	.	16b-\	.
.	.	.	16cc\JJ)	.	16aa\JJ)	.	.	.	.	.	16c\JJ)	.	16a\JJ)	.
8BB-/J	.	.	8dd\	.	8bb-\	.	.	.	.	.	8d\	-nit	8b-\	-nit
8r	.	.	8r	.	8r	.	.	.	.	.	8r	.	8ff\	qui
!	!	!	!	!	!LO:LB:g=original	!	!	!	!	!	!LO:LB:g=original	!	!	!
=66	=66	=66	=66	=66	=66	=66	=66	=66	=66	=66	=66	=66	=66	=66
!LO:TX:a:t=P:problem:mixed beam	!	!	!	!	!	!	!	!	!	!	!	!	!	!
8BB-/L	.	.	8r	.	8r	.	8r	.	8r	.	8r	.	4ff\	ve-
8B-\	.	.	8dd\L|	.	8bb-\L|	.	16B-\	qui	8d\	qui	16b-\	Be-	.	.
.	.	.	.	.	.	.	16B-\	ve-	.	.	16b-\	-ne-	.	.
8A\	.	.	(8ee-\	.	8ccc\|	.	8A\	-nit	8e-\	ve-	8cc\	-di-	8ff\	-nit
8F\J	.	.	8cc\J)	.	8aa\J|	.	8F\	in	8c\	-nit	8a\	-ctus	8ff\	in
=67	=67	=67	=67	=67	=67	=67	=67	=67	=67	=67	=67	=67	=67	=67
!LO:TX:a:t=P:problem:mixed beam	!	!	!	!	!	!	!	!	!	!	!	!	!	!
8BB-/L	.	.	8r	.	8r	.	8r	.	8r	.	8r	.	4ff\	No-
!	!	!	!	!	!	!	!	!	!LO:TX:b:t=P:problem:skreślony tekst słowny [przyjęto zgodnie z Alto]	!	!	!	!	!
*	*	*	*	*	*	*	*	*	*	*ij	*	*	*	*
8B-\	.	.	8dd\L|	.	8bb-\L|	.	8B-\	No-	8d\	qui	8b-\	qui	.	.
8A\	6	.	(8ee-\	.	8ccc\|	.	8A\	-mi-	8e-\	ve-	8cc\	ve-	8ff\	-mi-
8F\J	.	.	8cc\J)	.	8aa\J|	.	16F\	.	16c\	-nit	16a\	-nit	8ff\	-ne
.	.	.	.	.	.	.	16F\	-ne	16c\	in	16a\	in	.	.
*	*	*	*	*	*	*	*	*	*	*Xij	*	*	*	*
!	!	!	!	!	!	!	!	!	!LO:LB:g=original	!	!	!	!LO:LB:g=original	!
=68	=68	=68	=68	=68	=68	=68	=68	=68	=68	=68	=68	=68	=68	=68
!LO:TX:a:t=P:problem:mixed beam	!	!	!	!	!	!	!	!	!	!	!	!	!	!
8BB-\L	.	.	8b-/L	.	(16dd\LL	.	8B-\	No-	8B-\	No-	8b-\	No-	16dd\LL	No-
.	.	.	.	.	16b-\	.	.	.	.	.	.	.	16b-\JJ	.
8E-\	6	.	(16g/L	.	16ee-\	.	16E-\	-mi-	16c\	-mi-	16g\	-mi-	16ff\	-mi-
.	.	.	16e-/JJ)	.	16cc\JJ)	.	16E-\	-ne	16e-\	-ne	16e-\	-ne	16cc\	-ne
8F\	.	.	8d/L	.	8b-\L	.	8.F\	Do-	8d\	Do-	8d\	Do-	8b-\	Do-
8FF/J	.	.	8c/J	.	8a\J	.	.	.	8c\	-mi-	8c\	-mi-	8a\	-mi-
.	.	.	.	.	.	.	16F\	-mi-	.	.	.	.	.	.
=69	=69	=69	=69	=69	=69	=69	=69	=69	=69	=69	=69	=69	=69	=69
4BB-/	.	.	16d/LL	.	4b-\	.	4BB-/	-ni	4d\	-ni	8d\	-ni	4b-\	-ni
.	.	.	16f/	.	.	.	.	.	.	.	.	.	.	.
.	.	.	16f/	.	.	.	.	.	.	.	4f\	Be-	.	.
.	.	.	16f/JJ	.	.	.	.	.	.	.	.	.	.	.
*	*	*	*tremolo	*	*	*	*	*	*	*	*	*	*	*
4r	.	.	16f/LL	.	4r	.	4r	.	4r	.	.	.	4r	.
.	.	.	16f/	.	.	.	.	.	.	.	.	.	.	.
.	.	.	16f/	.	.	.	.	.	.	.	8f\	-ne	.	.
.	.	.	16f/JJ	.	.	.	.	.	.	.	.	.	.	.
*	*	*	*Xtremolo	*	*	*	*	*	*	*	*	*	*	*
!	!	!	!	!	!	!	!LO:LB:g=original	!	!	!	!	!	!	!
=70	=70	=70	=70	=70	=70	=70	=70	=70	=70	=70	=70	=70	=70	=70
!LO:TX:a:t=P:problem:mixed beam	!	!	!	!	!	!	!	!	!	!	!LO:TX:a:t=P:problem:takt zapisany repetycją	!	!	!
*	*	*	*	*	*	*	*	*	*	*	*	*ij	*	*
8BB-/L	.	.	8r	.	8r	.	8r	.	8r	.	8d\yy	-ni	8r	.
8B-\	.	.	8d/L|	.	8b-\L|	.	8B-\	qui	8d\	qui	4f\yy	Be-	8b-\	qui
8A\	.	.	(8e-/	.	(8cc\	.	8A\	ve-	8e-\	ve-	.	.	8cc\	ve-
8F\J	.	.	8c/J)	.	8a\J)	.	8F\	-nit	8c\	-nit	8f\yy	-ne-	8a\	-nit
*	*	*	*	*	*	*	*	*	*	*	*	*Xij	*	*
!	!	!	!LO:LB:g=original	!	!	!	!	!	!	!	!	!	!	!
=71	=71	=71	=71	=71	=71	=71	=71	=71	=71	=71	=71	=71	=71	=71
!LO:TX:a:t=P:problem:mixed beam	!	!	!	!	!	!	!	!	!	!	!	!	!	!
8BB-/L	.	.	8r	.	8r	.	8r	.	8r	.	4f\	-di-	8r	.
8B-\	.	.	8d/L|	.	8b-\L|	.	8B-\	qui	8d\	qui	.	.	8b-\	qui
8A\	.	.	(8e-/	.	(8cc\	.	8A\	ve-	8e-\	ve-	4f\	-ctus	8cc\	ve-
8F\J	.	.	8c/J)	.	8a\J)	.	8F\	-nit	8c\	-nit	.	.	8a\	-nit
=72	=72	=72	=72	=72	=72	=72	=72	=72	=72	=72	=72	=72	=72	=72
8B-\L	.	.	8b-\L	.	8b-\L	.	8B-\L	in	(8B-\L	in	4f\	in	8dd\L	in
8A\	.	.	8cc\	.	8ee-\	.	8A\J	.	8c\J)	.	.	.	8ee-\J	.
8B-\	.	.	8b-\	.	8dd\	.	8B-\	No-	8B-\	No-	8f\	No-	8dd\	No-
8A\J	.	.	8cc\J	.	8ee-\J	.	16A\	-mi-	16c\	-mi-	16f\	-mi-	16ee-\	-mi-
.	.	.	.	.	.	.	16A\	-ne	16c\	-ne	16f\	-ne	16ee-\	-ne
=73	=73	=73	=73	=73	=73	=73	=73	=73	=73	=73	=73	=73	=73	=73
!LO:TX:a:t=P:problem:mixed beam	!	!	!	!	!	!	!	!	!	!	!	!	!	!
8B-\L	.	.	(16b-/LL	.	8dd\L|	.	8B-\	No-	8B-\	No-	8f\	No-	8dd\	No-
.	.	.	16f/)	.	.	.	.	.	.	.	.	.	.	.
8E-\	.	.	(16g/	.	(16ee-\L	.	16E-\	-mi-	16c\	-mi-	16g\	-mi-	16ee-\	-mi-
.	.	.	16e-/JJ)	.	16cc\JJ)	.	16E-\	-ne,	16e-\	-ne	16e-\	-ne	16cc\	-ne
8F\	.	.	8d/L	.	8b-\L	.	8.F\	Do-	8d\	Do-	8d\	Do-	8b-\	Do-
8FF/J	.	.	8c/J	.	8a\J	.	.	.	8c\	-mi-	8c\	-mi-	8a\	-mi-
.	.	.	.	.	.	.	16FF/	-mi-	.	.	.	.	.	.
!	!	!	!	!	!	!	!	!	!	!	!LO:LB:g=original	!	!	!
=74	=74	=74	=74	=74	=74	=74	=74	=74	=74	=74	=74	=74	=74	=74
!LO:TX:a:t=P:problem:mixed beam	!	!	!	!	!	!	!	!	!	!	!	!	!	!
8B-\L	.	.	8d/L	.	8b-/L|	.	4BB-/	-ni	4d\	-ni	4B-/	-ni	4b-\	-ni
8F\	.	.	8f/	.	8f/|	.	.	.	.	.	.	.	.	.
!	!	!	!	!	!	!	!LO:TX:a:t=86	!	!	!	!	!	!	!
8BB-/J	.	.	8B-/J	.	8B-/J|	.	4r	.	4r	.	4r	.	4r	.
8r	.	.	8d/	.	8ff\	.	.	.	.	.	.	.	.	.
=75	=75	=75	=75	=75	=75	=75	=75	=75	=75	=75	=75	=75	=75	=75
*tremolo	*	*	*	*	*	*	*	*	*	*	*	*	*	*
!	!	!LO:DY:a:t=for=	!	!LO:DY:a:t=for	!	!	!LO:TX:a:t=12	!	!LO:TX:a:t=12	!	!LO:TX:a:t=12	!	!LO:TX:a:t=12	!
!	!	!	!	!	!	!	!LO:N:vis=00	!	!LO:N:vis=00	!	!LO:N:vis=00	!	!LO:N:vis=00	!
8BB-/L	.	f	24e-/LL	f	24gg\LL	.	0r	.	0r	.	0r	.	0r	.
.	.	.	24f/	.	24aa\	.	.	.	.	.	.	.	.	.
.	.	.	24g/JJ	.	24bb-\JJ	.	.	.	.	.	.	.	.	.
8BB-/	.	.	4g/	.	4bb-\	.	.	.	.	.	.	.	.	.
8BB-/	.	.	.	.	.	.	.	.	.	.	.	.	.	.
!	!	!	!	!	!LO:TX:a:t=P:problem:łuk dopisany ołówkiem	!	!	!	!	!	!	!	!	!
8BB-/J	.	.	(16f/LL	.	(16aa\LL	.	.	.	.	.	.	.	.	.
.	.	.	16e-/JJ)	.	16gg\JJ)	.	.	.	.	.	.	.	.	.
=76	=76	=76	=76	=76	=76	=76	=76	=76	=76	=76	=76	=76	=76	=76
8BB-/L	.	.	8e-/L	.	8gg\L	.	.	.	.	.	.	.	.	.
8BB-/	.	.	8d/J	.	8ff\J	.	.	.	.	.	.	.	.	.
8BB-/	.	.	8r	.	8r	.	.	.	.	.	.	.	.	.
8BB-/J	.	.	8d/	.	8dd\	.	.	.	.	.	.	.	.	.
=77	=77	=77	=77	=77	=77	=77	=77	=77	=77	=77	=77	=77	=77	=77
8AA/L	.	.	24c/LL	.	24ee-\LL	.	.	.	.	.	.	.	.	.
.	.	.	24d/	.	24ff\	.	.	.	.	.	.	.	.	.
.	.	.	24e-/JJ	.	24gg\JJ	.	.	.	.	.	.	.	.	.
8AA/	.	.	4e-/	.	4gg\	.	.	.	.	.	.	.	.	.
8AA/	.	.	.	.	.	.	.	.	.	.	.	.	.	.
!	!	!	!	!	!LO:TX:a:t=P:problem:łuk dopisany ołówkiem	!	!	!	!	!	!	!	!	!
8AA/J	.	.	(16d/LL	.	(16ff\LL	.	.	.	.	.	.	.	.	.
.	.	.	16c/JJ)	.	16ee-\JJ)Z	.	.	.	.	.	.	.	.	.
*Xtremolo	*	*	*	*	*	*	*	*	*	*	*	*	*	*
=78	=78	=78	=78	=78	=78	=78	=78	=78	=78	=78	=78	=78	=78	=78
8BB-/L	.	.	8c/L	.	8ee-\L	.	.	.	.	.	.	.	.	.
8BB-/	.	.	8B-/J	.	8dd\J	.	.	.	.	.	.	.	.	.
8BB-/	.	.	8r	.	8r	.	.	.	.	.	.	.	.	.
!LO:TX:a:t=P:problem:skreślony dźwiek 8D	!	!	!	!	!	!	!	!	!	!	!	!	!	!
8F/J	.	.	8f/	.	8cc\	.	.	.	.	.	.	.	.	.
!	!	!	!	!	!LO:LB:g=original	!	!	!	!	!	!	!	!	!
=79	=79	=79	=79	=79	=79	=79	=79	=79	=79	=79	=79	=79	=79	=79
!LO:TX:a:t=P:problem:mixed beam	!	!	!	!	!	!	!	!	!	!	!	!	!	!
!	!	!	!	!	!	!	!LO:N:vis=00	!	!LO:N:vis=00	!	!LO:N:vis=00	!	!LO:N:vis=00	!
8BB-/L	.	.	(16d/LL	.	(16dd\LL	.	0r	.	0r	.	0r	.	0r	.
.	.	.	16f/)	.	16b-\)	.	.	.	.	.	.	.	.	.
8B-\	.	.	(16d/	.	16b-\|	.	.	.	.	.	.	.	.	.
.	.	.	16f/JJ)	.	16b-\JJ|	.	.	.	.	.	.	.	.	.
8A\	.	.	(16c/LL	.	8.ee-\L	.	.	.	.	.	.	.	.	.
.	.	.	16f/)	.	.	.	.	.	.	.	.	.	.	.
8F\J	.	.	(16c/	.	.	.	.	.	.	.	.	.	.	.
.	.	.	16f/JJ)	.	16cc\Jk	.	.	.	.	.	.	.	.	.
!LO:LB:g=original	!	!	!	!	!	!	!	!	!	!	!	!	!	!
=80	=80	=80	=80	=80	=80	=80	=80	=80	=80	=80	=80	=80	=80	=80
!LO:TX:a:t=P:problem:mixed beam	!	!	!	!	!	!	!	!	!	!	!	!	!	!
8BB-/L	.	.	(16d/LL	.	(16dd\LL	.	.	.	.	.	.	.	.	.
.	.	.	16f/)	.	16b-\)	.	.	.	.	.	.	.	.	.
8B-\	.	.	(16d/	.	16b-\|	.	.	.	.	.	.	.	.	.
.	.	.	16f/JJ)	.	16b-\JJ|	.	.	.	.	.	.	.	.	.
8A\	.	.	(16c/LL	.	8.ee-\L	.	.	.	.	.	.	.	.	.
.	.	.	16f/)	.	.	.	.	.	.	.	.	.	.	.
8F\J	.	.	(16c/	.	.	.	.	.	.	.	.	.	.	.
.	.	.	16f/JJ)	.	16cc\Jk	.	.	.	.	.	.	.	.	.
=81	=81	=81	=81	=81	=81	=81	=81	=81	=81	=81	=81	=81	=81	=81
!LO:TX:a:t=P:problem:mixed beam	!	!	!	!	!	!	!	!	!	!	!	!	!	!
8B-\L	.	.	8f/L	.	(16dd\LL	.	.	.	.	.	.	.	.	.
.	.	.	.	.	16b-\	.	.	.	.	.	.	.	.	.
8E-\	.	.	8g/	.	16ee-\	.	.	.	.	.	.	.	.	.
.	.	.	.	.	16cc\JJ)	.	.	.	.	.	.	.	.	.
8F\	.	.	8d/	.	8b-\L	.	.	.	.	.	.	.	.	.
8FF/J	.	.	8c/J	.	8a\J	.	.	.	.	.	.	.	.	.
=82	=82	=82	=82	=82	=82	=82	=82	=82	=82	=82	=82	=82	=82	=82
*	*	*	*tremolo	*	*	*	*	*	*	*	*	*	*	*
!LO:TX:a:t=P:problem:mixed beam	!	!	!	!	!	!	!	!	!	!	!	!	!	!
8B-\L	.	.	8d/L	.	8b-/L	.	.	.	.	.	.	.	.	.
8F\	.	.	8d/	.	8f/	.	.	.	.	.	.	.	.	.
8BB-/J	.	.	8d/	.	8B-/	.	.	.	.	.	.	.	.	.
!	!	!	!	!	!	!LO:DY:t=Pia&colon;:dopisane ołówkiem	!	!	!	!	!	!	!	!
8r	.	.	8d/J	.	8c/J	p	.	.	.	.	.	.	.	.
*	*	*	*Xtremolo	*	*	*	*	*	*	*	*	*	*	*
=83	=83	=83	=83	=83	=83	=83	=83	=83	=83	=83	=83	=83	=83	=83
!	!	!	!	!	!	!	!LO:N:vis=00	!	!LO:N:vis=00	!	!LO:N:vis=00	!	!LO:N:vis=00	!
8BB-/L	.	.	(16d/LL	.	(16d/LL	.	0r	.	0r	.	0r	.	0r	.
.	.	.	16f/)	.	16B-/)	.	.	.	.	.	.	.	.	.
8BB-/	.	.	(16d/	.	16B-/|	.	.	.	.	.	.	.	.	.
.	.	.	16f/JJ)	.	16B-/JJ|	.	.	.	.	.	.	.	.	.
8AA/	.	.	(16c/LL	.	8.e-/L	.	.	.	.	.	.	.	.	.
.	.	.	16f/)	.	.	.	.	.	.	.	.	.	.	.
8FF/J	.	.	(16c/	.	.	.	.	.	.	.	.	.	.	.
.	.	.	16f/JJ)	.	16c/Jk	.	.	.	.	.	.	.	.	.
!	!	!	!LO:LB:g=original	!	!	!	!	!	!	!	!	!	!	!
=84	=84	=84	=84	=84	=84	=84	=84	=84	=84	=84	=84	=84	=84	=84
8BB-/L	.	.	(16d/LL	.	(16d/LL	.	.	.	.	.	.	.	.	.
.	.	.	16f/)	.	16B-/)	.	.	.	.	.	.	.	.	.
8BB-/	.	.	(16d/	.	16B-/|	.	.	.	.	.	.	.	.	.
.	.	.	16f/JJ)	.	16B-/JJ|	.	.	.	.	.	.	.	.	.
8AA/	.	.	(16c/LL	.	8.e-/L	.	.	.	.	.	.	.	.	.
.	.	.	16f/)	.	.	.	.	.	.	.	.	.	.	.
8FF/J	.	.	(16c/	.	.	.	.	.	.	.	.	.	.	.
.	.	.	16f/JJ)	.	16c/Jk	.	.	.	.	.	.	.	.	.
=85	=85	=85	=85	=85	=85	=85	=85	=85	=85	=85	=85	=85	=85	=85
!LO:TX:a:t=P:problem:mixed beam	!	!	!	!	!	!	!	!	!	!	!	!	!	!
8BB-\L	.	.	8f/L	.	16d/LL	.	.	.	.	.	.	.	.	.
.	.	.	.	.	(16b-/	.	.	.	.	.	.	.	.	.
8E-\	6	.	(16g/L	.	16a/	.	.	.	.	.	.	.	.	.
.	.	.	16e-/JJ)	.	16cc/JJ)	.	.	.	.	.	.	.	.	.
8F\	4	.	8d/L	.	8b-/L	.	.	.	.	.	.	.	.	.
8FF/J	3	.	8e-/J	.	8a/J	.	.	.	.	.	.	.	.	.
=86	=86	=86	=86	=86	=86	=86	=86	=86	=86	=86	=86	=86	=86	=86
!LO:TX:a:t=P:problem:mixed beam	!	!	!	!	!	!	!	!	!	!	!	!	!	!
8B-\L	.	.	8d/L	.	8b-/L	.	.	.	.	.	.	.	.	.
8F\	.	.	8d/	.	8f/	.	.	.	.	.	.	.	.	.
8BB-/J	.	.	8d/J	.	8B-/J	.	.	.	.	.	.	.	.	.
8r	.	.	8r	.	8r	.	.	.	.	.	.	.	.	.
!LO:LB:g=original	!	!	!	!	!LO:LB:g=original	!	!LO:LB:g=original	!	!LO:LB:g=original	!	!	!	!LO:LB:g=original	!
=87||	=87||	=87||	=87||	=87||	=87||	=87||	=87||	=87||	=87||	=87||	=87||	=87||	=87||	=87||
*clefC1	*	*	*	*	*	*	*	*	*	*	*	*	*	*
*k[a-b-e-]	*	*	*k[b-e-a-]	*	*k[b-e-a-]	*	*k[a-b-e-]	*	*k[e-a-b-]	*	*k[e-a-b-]	*	*k[b-e-a-]	*
*M2/4	*	*	*M2/4	*	*M2/4	*	*M2/4	*	*M2/4	*	*M2/4	*	*M2/4	*
*	*	*	*	*	*	*	*	*	*	*	*	*	*2\right	*
!	!	!	!	!	!	!	!LO:TX:a:t=P:problem:przy kluczu [A- BB- E-]	!	!	!	!	!	!	!
!	!	!	!	!	!	!	!	!	!LO:TX:a:t=5	!	!LO:TX:b:i:t=Osanna	!	!	!
!LO:TX:a:i:t=Tutti	!	!	!LO:TX:a:i:t=Tutti	!	!LO:TX:a:i:t=Tutti.	!	!LO:TX:a:t=6	!	!	!	!	!	!	!
!LO:TX:a:i:t=Oſsanna	!	!	!LO:TX:b:i:t=Oſsanna	!	!LO:TX:a:i:t=Oſsanna	!	!LO:TX:a:i:t=Oſsanna	!	!LO:TX:a:t=Tutti.	!	!LO:TX:a:t=1	!	!	!
!	!	!	!	!	!	!	!LO:N:vis=00	!	!LO:N:vis=00	!	!	!	!	!
2b-\	.	.	2r	.	2b-\	.	0r	.	0r	.	2r	.	2b-\	O-
=88	=88	=88	=88	=88	=88	=88	=88	=88	=88	=88	=88	=88	=88	=88
*^	*	*	*	*	*	*	*	*	*	*	*	*	*	*
2ee-/	8e-\L	.	.	8e-/L	.	2ee-\	.	.	.	.	.	8e-\L	in	2ee-\	-san-
.	8g\	.	.	8g/	.	.	.	.	.	.	.	8g\J	.	.	.
.	8cc\	.	.	8cc/	.	.	.	.	.	.	.	8cc\L	ex-	.	.
.	8b-\J	.	.	8b-/J	.	.	.	.	.	.	.	8b-\J	.	.	.
=89	=89	=89	=89	=89	=89	=89	=89	=89	=89	=89	=89	=89	=89	=89	=89
4ee-/	8an\L	.	.	8an/L	.	4ee-\	.	.	.	.	.	(8an\L	-cel-	4ee-\	.
.	8f\J	.	.	8f/J	.	.	.	.	.	.	.	8f\J)	.	.	.
4dd/	4b-\	.	.	4b-/	.	4dd\	.	.	.	.	.	4b-\	-sis	4dd\	-na
=90	=90	=90	=90	=90	=90	=90	=90	=90	=90	=90	=90	=90	=90	=90	=90
8cc/L	4b-\	.	.	4b-/	.	8cc\L|	.	.	.	.	.	4b-\	in	(8cc\L	in
8ee-/	.	.	.	.	.	8ee-\|	.	.	.	.	.	.	.	8ee-\J)	.
8ff/	4a-X\	.	.	4a-X/	.	8ff\|	.	.	.	.	.	4a-X\	ex-	(8ff\L	ex-
8ee-/J	.	.	.	.	.	8ee-\J|	.	.	.	.	.	.	.	8ee-\J)	.
=91	=91	=91	=91	=91	=91	=91	=91	=91	=91	=91	=91	=91	=91	=91	=91
!	!	!	!	!	!	!	!	!LO:N:vis=0	!	!	!	!	!	!LO:SIC:v:l:s=-cel-	!
8dd/L	4a-\	.	.	4a-/	.	8dd\L	.	1r	.	2r	.	4a-\	-cel-	(8dd\L	-cael-
8b-/J	.	.	.	.	.	8b-\J	.	.	.	.	.	.	.	8b-\J)	.
4ee-/	4g\	.	.	4g/	.	4ee-\	.	.	.	.	.	4g\	-sis	8ee-\	-sis
.	.	.	.	.	.	.	.	.	.	.	.	.	.	8ee-\	ex-
*v	*v	*	*	*	*	*	*	*	*	*	*	*	*	*	*
=92	=92	=92	=92	=92	=92	=92	=92	=92	=92	=92	=92	=92	=92	=92
*clefC4	*	*	*	*	*	*	*	*	*2\right	*	*2\right	*	*	*
2B-\	5 4	.	2f/	.	4ee-\	.	.	.	2B-\	O-	2f\	O-	4ee-\	-cael-
.	x 3	.	.	.	4dd\	.	.	.	.	.	.	.	4dd\	.
=93	=93	=93	=93	=93	=93	=93	=93	=93	=93	=93	=93	=93	=93	=93
*clefF4	*	*	*	*	*	*	*	*	*	*	*	*	*	*
8E-\L	.	.	2g/	.	4ee-\	.	8E-\L	in	2e-\	.	2g\	.	4ee-\	-sis
8G\	.	.	.	.	.	.	8G\J	.	.	.	.	.	.	.
8c\	.	.	.	.	4r	.	8c\L	ex-	.	.	.	.	4r	.
8B-\J	.	.	.	.	.	.	8B-\J	.	.	.	.	.	.	.
=94	=94	=94	=94	=94	=94	=94	=94	=94	=94	=94	=94	=94	=94	=94
!	!	!	!	!	!LO:TX:a:t=1	!	!	!	!	!	!	!	!LO:TX:a:t=1	!
8An\L	.	.	4g/	.	2r	.	8An\L	-cel-	4e-\	-ſan-	4f\	-san-	2r	.
8F\J	.	.	.	.	.	.	8F\J	.	.	.	.	.	.	.
4B-\	.	.	4f/	.	.	.	4B-\	-sis	4d\	-na	4f\	-na	.	.
=95	=95	=95	=95	=95	=95	=95	=95	=95	=95	=95	=95	=95	=95	=95
*clefC1	*	*	*	*	*	*	*	*	*	*	*	*	*	*
*^	*	*	*	*	*	*	*	*	*	*	*	*	*	*
!	!	!	!	!	!	!	!	!	!	!LO:TX:a:t=2	!	!	!	!	!
!	!	!	!	!	!	!	!	!LO:N:vis=0	!	!LO:N:vis=0	!	!	!	!	!
8r	2e-\	.	.	2e-/	.	8r	.	1r	.	1r	.	2e-\	O-	8r	.
8g/L	.	.	.	.	.	(8g/L	.	.	.	.	.	.	.	8g\	O-
8cc/	.	.	.	.	.	8cc/	.	.	.	.	.	.	.	8cc\	-san-
8b-/J	.	.	.	.	.	8b-/J)	.	.	.	.	.	.	.	8b-\	-na
=96	=96	=96	=96	=96	=96	=96	=96	=96	=96	=96	=96	=96	=96	=96	=96
8an/L	4e-\	.	.	4e-/	.	(8an/L	.	.	.	.	.	4e-\	-san-	(8an\L	in
8f/J	.	.	.	.	.	8f/J)	.	.	.	.	.	.	.	8f\J)	.
4b-/	4d\	.	.	4d/	.	4b-/	.	.	.	.	.	4d\	-na	4b-\	ex-
*v	*v	*	*	*	*	*	*	*	*	*	*	*	*	*	*
=97	=97	=97	=97	=97	=97	=97	=97	=97	=97	=97	=97	=97	=97	=97
!	!	!	!	!	!	!	!	!	!	!	!	!	!LO:SIC:v:l:s=-cel-	!
2b-\	5 4	.	2c/	.	4b-/	.	2F\	O-	4F/	O-	2c\	O-	4b-\	-cael-
.	x #	.	.	.	4an/	.	.	.	4E-/	-san-	.	.	4an\	.
!	!	!	!	!	!	!	!	!	!	!	!	!	!LO:LB:g=original	!
=98	=98	=98	=98	=98	=98	=98	=98	=98	=98	=98	=98	=98	=98	=98
!LO:CL:ed	!	!	!	!	!	!	!	!	!	!	!	!	!	!
*clefF4	*	*	*	*	*	*	*	*	*	*	*	*	*	*
8BB-\L	.	.	2d/	.	2b-/	.	8BB-/L	-san-	4D/	-na	2d\	.	2b-\	-sis
8D\	.	.	.	.	.	.	8D/J	.	.	.	.	.	.	.
8G\	.	.	.	.	.	.	8G\L	-na	4r	.	.	.	.	.
8F\J	.	.	.	.	.	.	8F\J	.	.	.	.	.	.	.
!	!	!	!	!	!	!	!	!	!	!	!LO:LB:g=original	!	!	!
=99	=99	=99	=99	=99	=99	=99	=99	=99	=99	=99	=99	=99	=99	=99
*clefF4	*	*	*	*	*	*	*	*	*	*	*	*	*	*
8E-\L	9	.	2c/	.	4b-/	.	8E-\L	in	4G/	O-	2c\	-san-	4b-\	o-
8C\	5	.	.	.	.	.	8C\J	.	.	.	.	.	.	.
8F\	.	.	.	.	4a-X/	.	8F\L	ex-	4F/	-san-	.	.	4a-X\	-san-
8E-\J	.	.	.	.	.	.	8E-\J	.	.	.	.	.	.	.
!LO:LB:g=original	!	!	!LO:LB:g=original	!	!	!	!	!	!	!	!	!	!	!
=100	=100	=100	=100	=100	=100	=100	=100	=100	=100	=100	=100	=100	=100	=100
8D\L	9 5	.	2B-/	.	4a-/	.	8D/L	-cel-	4E-/	-na	2B-/	-na	4a-\	.
8BB-\J	.	.	.	.	.	.	8BB-/J	.	.	.	.	.	.	.
4E-\	.	.	.	.	8g/	.	4E-\	-ſis	4r	.	.	.	4g\	-na
.	.	.	.	.	8r	.	.	.	.	.	.	.	.	.
=101	=101	=101	=101	=101	=101	=101	=101	=101	=101	=101	=101	=101	=101	=101
*clefC4	*	*	*	*	*	*	*	*	*	*	*	*	*	*
*^	*	*	*	*	*	*	*	*	*	*	*	*	*	*
!	!	!	!	!	!	!	!	!LO:TX:a:t=4	!	!	!	!LO:TX:a:t=2	!	!	!
!	!	!	!	!	!	!	!	!LO:N:vis=00	!	!	!	!LO:N:vis=0	!	!	!
8r	2A-\	.	.	2a-X/	.	8r	.	0r	.	2A-/	O-	1r	.	8r	.
8c/L	.	.	.	.	.	8cc\L|	.	.	.	.	.	.	.	8cc\L	in
8f/	.	.	.	.	.	8ff\|	.	.	.	.	.	.	.	8ff\J	.
8e-/J	.	.	.	.	.	8ee-\J|	.	.	.	.	.	.	.	8ee-\	ex-
=102	=102	=102	=102	=102	=102	=102	=102	=102	=102	=102	=102	=102	=102	=102	=102
!	!	!	!	!	!	!	!	!	!	!	!	!	!	!LO:SIC:v:l:s=-cel-	!
8d/L	4A-\	.	.	4a-/	.	8dd\L	.	.	.	4A-/	-ſan-	.	.	(8dd\L	-cael-
8B-/J	.	.	.	.	.	8b-\J	.	.	.	.	.	.	.	8b-\J)	.
4e-/	4G\	.	.	4g/	.	4ee-\	.	.	.	4G/	-na	.	.	4ee-\	-sis
=103	=103	=103	=103	=103	=103	=103	=103	=103	=103	=103	=103	=103	=103	=103	=103
*clefC1	*	*	*	*	*	*	*	*	*	*	*	*	*	*	*
!	!	!	!	!	!	!	!	!	!	!	!	!	!	!LO:TX:a:t=2	!
!	!	!	!	!	!	!	!	!	!	!	!	!	!	!LO:N:vis=0	!
8r	2a-\	.	.	8r	.	2a-/	.	.	.	8r	.	2a-\	O-	1r	.
8cc/L	.	.	.	8cc\L	.	.	.	.	.	8c\	in	.	.	.	.
8ff/	.	.	.	8ff\	.	.	.	.	.	8f\	.	.	.	.	.
8ee-/J	.	.	.	8ee-\J	.	.	.	.	.	8e-\	ex-	.	.	.	.
=104	=104	=104	=104	=104	=104	=104	=104	=104	=104	=104	=104	=104	=104	=104	=104
8dd/L	4a-\	.	.	8dd\L	.	(4a-/	.	.	.	(8d\L	-cel-	4a-\	-san-	.	.
8b-/J	.	.	.	8b-\J	.	.	.	.	.	8B-\J)	.	.	.	.	.
4ee-/	4g\	.	.	4ee-\	.	4g/)	.	.	.	4e-\	-sis	4g\	-na	.	.
*v	*v	*	*	*	*	*	*	*	*	*	*	*	*	*	*
=105	=105	=105	=105	=105	=105	=105	=105	=105	=105	=105	=105	=105	=105	=105
*clefF4	*	*	*	*	*	*	*	*	*	*	*	*	*	*
2B-\	5 4	.	4ee-\	.	4f/	.	2B-\	O-	2B-\	O-	2f\	in	4ee-\	O-
.	x 3	.	4dd\	.	4ff\	.	.	.	.	.	.	.	4dd\	.
!	!	!	!	!	!LO:LB:g=original	!	!	!	!	!	!	!	!	!
=106	=106	=106	=106	=106	=106	=106	=106	=106	=106	=106	=106	=106	=106	=106
8E-\L	.	.	4b-\	.	4ee-\	.	8E-\L	-ſan-	4B-\	-ſan-	2g\	ex-	4ee-\	-san-
8G\	.	.	.	.	.	.	8G\J	.	.	.	.	.	.	.
8c\	.	.	4cc\	.	4ee-\	.	8c\L	-na	4c\	-na	.	.	4ee-\	-na
8B-\J	.	.	.	.	.	.	8B-\J	.	.	.	.	.	.	.
!	!	!	!	!	!	!	!	!	!	!LO:LB:g=original	!	!	!	!
=107	=107	=107	=107	=107	=107	=107	=107	=107	=107	=107	=107	=107	=107	=107
!LO:TX:a:t=P:problem:mixed beam	!	!	!	!	!	!	!	!	!	!	!	!	!	!
8A-\L	9 5	.	4cc\	.	4ee-\	.	8A-\L	in	4c\	in	2f\	-cel-	4ee-\	in
8F\	.	.	.	.	.	.	8F\J	.	.	.	.	.	.	.
8B-\	.	.	4b-\	.	4dd\	.	8B-\L	ex-	4B-\	ex-	.	.	4dd\	ex-
8BB-/J	.	.	.	.	.	.	8A-\J	.	.	.	.	.	.	.
=108	=108	=108	=108	=108	=108	=108	=108	=108	=108	=108	=108	=108	=108	=108
!LO:TX:a:t=P:problem:mixed beam	!	!	!	!	!	!	!	!	!LO:SIC:v:s=2B-	!	!	!	!LO:SIC:v:l:s=-cel-	!
8G\L	6	.	4g/	.	4ee-\	.	8G\L	-cel-	2A-\	-cel-	4g\	.	(4ee-\	-cael-
8E-\	.	.	.	.	.	.	8E-\J	.	.	.	.	.	.	.
!	!	!	!	!	!	!	!LO:LB:g=original	!	!	!	!	!	!	!
8B-\	4	.	4f/	.	4dd\	.	8B-\	.	.	.	4f\	-sis	4dd\)	.
8BB-/J	3	.	.	.	.	.	8BB-/	.	.	.	.	.	.	.
=109	=109	=109	=109	=109	=109	=109	=109	=109	=109	=109	=109	=109	=109	=109
4E-\	.	.	4g/	.	4ee-\	.	8E-\	-sis	8B-\	-sis	8g\	in	8ee-\	-sis
.	.	.	.	.	.	.	8E-\	ex-	8B-\	ex-	8g\	ex-	(8ee-\	ex-
4BB-/	7	.	4a-/	.	4dd\	.	4BB-/	-cel-	4A-X\	-ce-	4f\	-cel-	4dd\)	.
=110	=110	=110	=110	=110	=110	=110	=110	=110	=110	=110	=110	=110	=110	=110
!	!	!	!	!	!	!	!	!	!	!	!	!	!LO:SIC:v:l:s=-cel-	!
4E-\	.	.	4g/	.	4ee-\	.	8E-\	-sis	8B-\	-sis	8g\	-sis	(4ee-\	-cael-
.	.	.	.	.	.	.	8E-\	ex-	8B-\	ex-	8g\	ex-	.	.
4BB-/	7	.	4a-/	.	4dd\	.	4BB-/	-cel-	4A-\	-cel-	4f\	-cel-	4dd\)	.
=111	=111	=111	=111	=111	=111	=111	=111	=111	=111	=111	=111	=111	=111	=111
!	!	!	!	!	!	!	!LO:TX:a:t=25	!	!	!	!	!	!	!
4E-\	.	.	4g/	.	4ee-\	.	4E-\	-sis	4B-\	-sis	4g\	-sis	4ee-\	-sis
!	!	!	!	!	!LO:TX:b:i:t=Agnus. Vortatur	!	!	!	!	!	!	!	!	!
4r	.	.	4r	.	4r	.	4r	.	4r	.	4r	.	4r	.
==	==	==	==	==	==	==	==	==	==	==	==	==	==	==
*-	*-	*-	*-	*-	*-	*-	*-	*-	*-	*-	*-	*-	*-	*-
!!!system-decoration: [g1][g2]s7
!!!RDF**kern: < = below
!!!RDF**dynam: p = "pia"
!!!RDF**dynam: f ="for."
!!!ENC: Zofia Niedbalska
!!!END: 2020-12-10
!!!ENC: Andrzej Kubiczek
!!!END: 2020-06-05
!!!RDF**kern: | = vertical stroke
